; HEADER_BLOCK_START
; generated by OrcaSlicer 2.3.1 on 2025-11-19 at 08:41:10
; total layer number: 240
; filament_density: 1.24
; filament_diameter: 1.75
; max_z_height: 48.00
; HEADER_BLOCK_END

; THUMBNAIL_BLOCK_START

;
; THUMBNAIL_BLOCK_END

; THUMBNAIL_BLOCK_START

;
; THUMBNAIL_BLOCK_END

; external perimeters extrusion width = 0.42mm
; perimeters extrusion width = 0.45mm
; infill extrusion width = 0.45mm
; solid infill extrusion width = 0.42mm
; top infill extrusion width = 0.42mm
; first layer extrusion width = 0.50mm

; EXECUTABLE_BLOCK_START
EXCLUDE_OBJECT_DEFINE NAME=3DBenchy_id_0_copy_0 CENTER=0,0 POLYGON=[[-30.0005,-9.184],[-29.9975,-9.245],[-29.9935,-9.301],[-29.9885,-9.354],[-29.9865,-9.37],[-29.9805,-9.417],[-29.9715,-9.475],[-29.9545,-9.564],[-29.9415,-9.621],[-29.9265,-9.678],[-29.9195,-9.704],[-29.9025,-9.761],[-29.8735,-9.845],[-29.8595,-9.882],[-29.8375,-9.936],[-29.8305,-9.953],[-29.8145,-9.99],[-29.7905,-10.042],[-29.7695,-10.084],[-29.7365,-10.146],[-29.7215,-10.173],[-29.7095,-10.194],[-29.6605,-10.273],[-29.6425,-10.3],[-29.6285,-10.321],[-29.5945,-10.369],[-29.5595,-10.416],[-29.5165,-10.469],[-29.4915,-10.499],[-29.4615,-10.534],[-29.4215,-10.577],[-29.4075,-10.592],[-29.3995,-10.6],[-29.3585,-10.641],[-29.3385,-10.66],[-29.2955,-10.7],[-29.2625,-10.729],[-29.2175,-10.766],[-29.2065,-10.775],[-29.1715,-10.803],[-29.1135,-10.846],[-29.0655,-10.879],[-29.0215,-10.908],[-28.9555,-10.948],[-28.9285,-10.964],[-28.8765,-10.992],[-28.8515,-11.005],[-28.8245,-11.019],[-28.8025,-11.03],[-28.7465,-11.056],[-28.6885,-11.081],[-28.6385,-11.101],[-28.5835,-11.121],[-28.5715,-11.125],[-28.5285,-11.139],[-28.5155,-11.143],[-28.4595,-11.16],[-28.4525,-11.162],[-28.4155,-11.172],[-28.4035,-11.175],[-28.3755,-11.182],[-28.3595,-11.186],[-28.2895,-11.201],[-28.2605,-11.206],[-28.2315,-11.211],[-28.2025,-11.216],[-0.1875,-15.114],[0.055499,-15.147],[0.299499,-15.179],[0.543499,-15.209],[0.882499,-15.248],[1.1055,-15.272],[1.3505,-15.298],[1.5965,-15.322],[1.8425,-15.344],[2.0875,-15.365],[2.2535,-15.378],[2.3335,-15.384],[2.5235,-15.398],[2.5795,-15.402],[2.8265,-15.419],[2.9875,-15.429],[3.0715,-15.434],[3.2325,-15.443],[3.4895,-15.456],[3.5975,-15.461],[3.6195,-15.462],[3.7555,-15.468],[3.9065,-15.474],[4.0505,-15.479],[4.1675,-15.483],[4.2335,-15.485],[4.3425,-15.488],[4.4605,-15.491],[4.5485,-15.493],[4.6895,-15.496],[4.8815,-15.499],[5.0625,-15.501],[5.1805,-15.502],[5.5785,-15.502],[5.9345,-15.5],[6.3695,-15.492],[6.4495,-15.49],[6.8055,-15.48],[6.9125,-15.476],[7.2405,-15.463],[7.6765,-15.442],[8.0095,-15.422],[8.0925,-15.417],[8.2025,-15.41],[8.3755,-15.398],[8.4955,-15.389],[8.6415,-15.378],[8.7285,-15.371],[8.9095,-15.356],[9.0395,-15.345],[9.8325,-15.22],[9.8415,-15.218],[10.2695,-15.112],[10.3775,-15.085],[10.5955,-15.03],[10.7375,-14.993],[10.8135,-14.973],[10.9675,-14.932],[11.2485,-14.855],[11.4245,-14.805],[11.6805,-14.73],[11.8965,-14.666],[12.1105,-14.6],[12.3325,-14.53],[12.5585,-14.457],[12.7525,-14.393],[13.0085,-14.306],[13.1785,-14.247],[13.2325,-14.228],[13.4005,-14.168],[13.6015,-14.095],[13.8225,-14.013],[14.0335,-13.933],[14.2335,-13.855],[14.3435,-13.812],[14.4435,-13.772],[14.4535,-13.768],[14.6625,-13.684],[14.8715,-13.598],[14.9265,-13.575],[15.1345,-13.487],[15.3415,-13.397],[15.5475,-13.307],[15.9575,-13.121],[16.1605,-13.026],[16.3635,-12.93],[16.5655,-12.832],[16.7665,-12.733],[16.9675,-12.633],[17.1665,-12.531],[17.3655,-12.428],[17.5635,-12.323],[17.7615,-12.217],[17.9575,-12.11],[18.1535,-12.001],[18.3485,-11.89],[18.5435,-11.779],[18.7375,-11.666],[18.9305,-11.551],[19.1225,-11.435],[19.3145,-11.317],[19.5055,-11.199],[19.6965,-11.078],[19.8855,-10.957],[20.0745,-10.833],[20.2625,-10.709],[20.4505,-10.583],[20.6375,-10.456],[20.8235,-10.327],[21.0085,-10.197],[21.1925,-10.066],[21.3765,-9.933],[21.5595,-9.799],[21.7425,-9.663],[21.9235,-9.526],[22.1045,-9.388],[22.2845,-9.248],[22.4635,-9.107],[22.6425,-8.964],[22.8205,-8.82],[22.9975,-8.675],[23.1735,-8.528],[23.5235,-8.23],[23.6975,-8.079],[23.8705,-7.926],[24.0425,-7.772],[24.2145,-7.616],[24.3285,-7.511],[24.4975,-7.355],[24.6655,-7.197],[24.8315,-7.038],[24.9965,-6.878],[25.1615,-6.717],[25.3245,-6.555],[25.4865,-6.391],[25.6475,-6.227],[25.8075,-6.061],[25.9665,-5.894],[26.1245,-5.726],[26.2815,-5.557],[26.4375,-5.386],[26.5925,-5.215],[26.7455,-5.042],[26.8985,-4.868],[27.0505,-4.694],[27.2005,-4.517],[27.3495,-4.34],[27.4985,-4.162],[27.6455,-3.983],[27.7915,-3.802],[27.9365,-3.62],[28.0805,-3.437],[28.2235,-3.253],[28.3645,-3.068],[28.5055,-2.882],[28.6455,-2.695],[28.7835,-2.507],[28.9205,-2.317],[29.0565,-2.126],[29.1915,-1.935],[29.3255,-1.742],[29.4585,-1.548],[29.5895,-1.353],[29.6185,-1.308],[29.6515,-1.255],[29.6825,-1.202],[29.7125,-1.148],[29.7415,-1.093],[29.7685,-1.038],[29.8185,-0.924],[29.8345,-0.883],[29.8565,-0.824999],[29.8765,-0.767],[29.8955,-0.708],[29.9125,-0.648999],[29.9285,-0.587],[29.9425,-0.529999],[29.9545,-0.469999],[29.9665,-0.407],[29.9755,-0.347999],[29.9835,-0.287],[29.9905,-0.225999],[29.9955,-0.164],[29.9985,-0.094999],[30.0005,-0.034],[30.0005,0.027],[29.9995,0.087999],[29.9965,0.149],[29.9915,0.209],[29.9855,0.27],[29.9775,0.331],[29.9685,0.391],[29.9585,0.449],[29.9455,0.512],[29.9325,0.569],[29.9165,0.632],[29.9015,0.685999],[29.8835,0.745],[29.8635,0.802999],[29.8425,0.861],[29.8205,0.917999],[29.7965,0.973999],[29.7715,1.03],[29.7445,1.086],[29.7165,1.14],[29.6865,1.194],[29.6555,1.248],[29.6235,1.301],[29.5895,1.353],[29.4725,1.527],[29.3395,1.721],[29.2055,1.914],[29.0715,2.106],[28.9355,2.297],[28.7975,2.487],[28.6595,2.676],[28.5205,2.864],[28.3795,3.05],[28.2375,3.236],[28.0945,3.42],[27.9505,3.604],[27.6585,3.968],[27.5105,4.148],[27.3615,4.328],[27.2105,4.506],[27.0595,4.683],[26.9065,4.86],[26.7525,5.035],[26.5975,5.209],[26.4825,5.337],[26.3255,5.509],[26.1675,5.68],[26.0085,5.85],[25.8485,6.018],[25.6875,6.186],[25.5255,6.352],[25.1995,6.68],[25.0345,6.841],[24.8695,7.002],[24.7035,7.161],[24.5355,7.319],[24.3675,7.475],[24.1985,7.63],[24.0285,7.784],[23.8575,7.937],[23.6855,8.089],[23.5125,8.239],[23.3385,8.388],[23.1635,8.536],[22.9875,8.682],[22.8105,8.827],[22.6325,8.971],[22.4545,9.114],[22.2745,9.256],[22.0935,9.396],[21.9115,9.535],[21.7285,9.673],[21.5445,9.81],[21.3595,9.945],[21.1735,10.08],[20.7995,10.344],[20.6105,10.474],[20.4205,10.603],[20.2305,10.731],[20.0385,10.857],[19.8465,10.982],[19.6525,11.106],[19.4585,11.228],[19.2635,11.349],[19.0665,11.469],[18.8695,11.587],[18.6715,11.704],[18.4725,11.819],[18.2725,11.934],[18.0725,12.046],[17.8705,12.158],[17.5945,12.307],[17.3955,12.412],[17.1965,12.516],[16.9965,12.618],[16.7955,12.719],[16.5945,12.818],[16.3925,12.916],[16.1905,13.012],[15.9875,13.107],[15.7835,13.2],[15.5795,13.292],[15.3745,13.383],[15.1695,13.472],[14.9635,13.559],[14.7565,13.645],[14.6665,13.682],[14.5495,13.73],[14.3415,13.813],[14.1225,13.898],[14.0035,13.944],[13.7045,14.057],[13.4935,14.134],[13.2935,14.206],[13.0715,14.284],[12.8845,14.348],[12.8695,14.353],[12.6565,14.424],[12.4435,14.494],[12.2065,14.57],[12.0055,14.632],[11.9795,14.64],[11.7515,14.709],[11.5235,14.776],[11.2955,14.841],[11.1425,14.884],[11.0655,14.905],[10.9245,14.943],[10.7065,15.001],[10.6065,15.027],[10.4885,15.057],[10.2695,15.112],[9.8435,15.218],[9.3165,15.319],[9.3065,15.32],[9.0505,15.344],[9.0035,15.348],[8.8105,15.364],[8.7255,15.371],[8.5615,15.384],[8.4815,15.39],[8.1345,15.414],[7.6885,15.441],[7.6495,15.443],[7.2645,15.462],[7.1265,15.468],[6.7785,15.481],[6.5645,15.487],[6.3435,15.493],[5.9075,15.5],[5.5215,15.502],[5.1775,15.502],[4.8775,15.499],[4.8215,15.498],[4.5995,15.494],[4.4565,15.491],[4.3385,15.488],[4.1665,15.483],[4.0765,15.48],[3.9305,15.475],[3.7525,15.468],[3.7285,15.467],[3.5705,15.46],[3.4625,15.455],[3.3325,15.448],[3.1335,15.437],[2.8895,15.423],[2.6445,15.407],[2.6295,15.406],[2.3425,15.385],[2.0965,15.366],[1.8495,15.345],[1.6675,15.328],[1.6035,15.322],[1.4235,15.305],[1.1795,15.28],[1.1115,15.273],[0.935499,15.254],[0.619499,15.218],[0.373499,15.188],[0.204499,15.166],[-0.1175,15.124],[-28.1725,11.22],[-28.2075,11.215],[-28.2575,11.207],[-28.3145,11.196],[-28.3465,11.189],[-28.4035,11.175],[-28.4155,11.172],[-28.4525,11.162],[-28.4635,11.159],[-28.5195,11.142],[-28.5715,11.125],[-28.5835,11.121],[-28.6385,11.101],[-28.6885,11.081],[-28.7465,11.056],[-28.8025,11.03],[-28.8445,11.009],[-28.8955,10.982],[-28.9135,10.972],[-28.9555,10.948],[-29.0075,10.917],[-29.0215,10.908],[-29.0565,10.885],[-29.0655,10.879],[-29.1135,10.846],[-29.1525,10.817],[-29.1605,10.811],[-29.2065,10.775],[-29.2445,10.744],[-29.2515,10.738],[-29.2955,10.7],[-29.3385,10.66],[-29.3595,10.64],[-29.4075,10.592],[-29.4425,10.555],[-29.4615,10.534],[-29.4815,10.511],[-29.5195,10.466],[-29.5555,10.42],[-29.5695,10.402],[-29.5905,10.374],[-29.5935,10.37],[-29.6275,10.322],[-29.6425,10.3],[-29.6575,10.278],[-29.6915,10.224],[-29.7215,10.173],[-29.7495,10.122],[-29.7695,10.084],[-29.7815,10.06],[-29.8045,10.012],[-29.8305,9.954],[-29.8515,9.903],[-29.8725,9.849],[-29.8915,9.793],[-29.8925,9.79],[-29.9095,9.738],[-29.9255,9.682],[-29.9405,9.625],[-29.9545,9.564],[-29.9655,9.507],[-29.9745,9.454],[-29.9755,9.448],[-29.9835,9.396],[-29.9885,9.353],[-29.9915,9.325],[-29.9975,9.245],[-29.9995,9.208],[-30.0005,9.179],[-30.0005,-9.184]]
M73 P0 R36
M106 S0
M106 P2 S0
;TYPE:Custom
SET_PRINT_STATS_INFO TOTAL_LAYER=240 CURRENT_LAYER=0

START_PRINT EXTRUDER_TEMP=220 BED_TEMP=55 Chamber=0 PRINT_MIN=-27.8722,-10.0982 PRINT_MAX=15.1181,10.0972 FORCE_LEVELING=true
G90
G21
M83 ; use relative distances for extrusion
; filament start gcode
;right_extruder_material: PLA
SET_PRESSURE_ADVANCE ADVANCE=0.025; Override pressure advance value
M106 S0
M106 P2 S0
;LAYER_CHANGE
;Z:0.2
;HEIGHT:0.2
;BEFORE_LAYER_CHANGE
;0.2
G1 E-.8 F2100
TIMELAPSE_TAKE_FRAME
;AFTER_LAYER_CHANGE
;0.2
SET_PRINT_STATS_INFO CURRENT_LAYER=1
M117 Layer 1/240 : Flashforge Generic PLA
;_SET_FAN_SPEED_CHANGING_LAYER
SET_VELOCITY_LIMIT ACCEL=500
; printing object 3DBenchy id:0 copy 0
EXCLUDE_OBJECT_START NAME=3DBenchy_id_0_copy_0
G1 X.099 Y2.242 F30000
G1 Z.6
G1 Z.2
G1 E.8 F2100
;TYPE:Outer wall
;WIDTH:0.5
G1 F3000
G1 X.006 Y2.345 E.0052
G1 X-.046 Y2.449 E.00433
G1 X-.033 Y2.596 E.00549
G1 X-.269 Y3.033 E.01848
G1 X-.456 Y3.262 E.01104
G1 X-.754 Y3.428 E.01272
G1 X-1.035 Y3.434 E.01045
G1 X-1.282 Y3.353 E.00966
G1 X-1.442 Y3.229 E.00755
G1 X-1.514 Y3.125 E.0047
G1 X-1.618 Y2.881 E.00988
G1 X-1.654 Y2.635 E.00926
G1 X-1.61 Y2.413 E.00844
G1 X-1.454 Y1.941 E.01852
G1 X-1.142 Y1.244 E.02845
G1 X-.816 Y.774 E.02129
G1 X-1.044 Y.415 E.01584
G1 X-1.616 Y-.617 E.04394
G1 X-1.712 Y-.902 E.01121
G1 X-1.728 Y-1.241 E.01264
G1 X-1.632 Y-1.509 E.01059
G1 X-1.392 Y-1.753 E.01275
G1 X-1.217 Y-1.843 E.00734
G1 X-1.025 Y-1.9 E.00746
G1 X-.753 Y-1.901 E.01012
G1 X-.57 Y-1.832 E.00727
G1 X-.308 Y-1.64 E.01211
G1 X-.176 Y-1.458 E.00838
G1 X-.123 Y-1.269 E.00731
G1 X.006 Y-1.026 E.01025
G1 X.183 Y-.834 E.00973
G1 X.35 Y-1.024 E.00942
G1 X.462 Y-1.228 E.00866
G1 X.57 Y-1.525 E.01179
G1 X.796 Y-1.729 E.01134
G1 X1.079 Y-1.886 E.01206
G1 X1.306 Y-1.896 E.00845
G1 X1.597 Y-1.779 E.01169
G1 X1.746 Y-1.663 E.00701
G1 X1.853 Y-1.526 E.0065
G1 X1.943 Y-1.208 E.0123
G1 X1.946 Y-.977 E.00861
G1 X1.911 Y-.748 E.00863
G1 X1.837 Y-.545 E.00803
G1 X1.628 Y-.132 E.01723
G1 X1.259 Y.483 E.02674
G1 X1.2 Y.623 E.00563
G1 X1.184 Y.712 E.00337
G1 X1.221 Y.857 E.00558
G1 X1.987 Y2.151 E.05602
G1 X2.078 Y2.432 E.01101
G1 X2.094 Y2.726 E.01094
G1 X2.029 Y3.002 E.01058
G1 X1.927 Y3.176 E.0075
G1 X1.801 Y3.306 E.00674
G1 X1.645 Y3.403 E.00686
G1 X1.387 Y3.484 E.01005
G1 X1.091 Y3.488 E.01104
G1 X.833 Y3.39 E.01029
G1 X.688 Y3.276 E.00684
G1 X.529 Y3.074 E.00959
G1 X.441 Y2.867 E.00837
G1 X.366 Y2.591 E.01067
G1 X.254 Y2.396 E.00836
G1 X.128 Y2.27 E.00663
G1 E-.8 F2100
;WIPE_START
G1 F3000
G1 X.006 Y2.345
G1 X-.046 Y2.449
G1 X-.033 Y2.596
G1 X-.269 Y3.033
G1 X-.456 Y3.262
G1 X-.754 Y3.428
G1 X-1.035 Y3.434
G1 X-1.205 Y3.378
;WIPE_END
G1 X-2.148 Y1.554 Z.6 F30000
G1 Z.2
G1 E.8 F2100
G1 F3000
G1 X-2.037 Y1.798 E.00997
G1 X-1.98 Y2.42 E.02328
G1 X-2.038 Y2.741 E.01214
G1 X-2.111 Y2.913 E.00698
G1 X-2.166 Y3.119 E.00792
G1 X-2.31 Y3.342 E.0099
G1 X-2.494 Y3.511 E.0093
G1 X-2.706 Y3.646 E.00937
G1 X-2.954 Y3.732 E.0098
G1 X-3.318 Y3.761 E.01358
G1 X-3.57 Y3.722 E.00952
G1 X-3.806 Y3.636 E.00935
G1 X-4.026 Y3.507 E.00951
G1 X-4.209 Y3.329 E.00949
G1 X-4.35 Y3.126 E.00922
G1 X-4.453 Y2.883 E.00981
G1 X-4.482 Y2.36 E.01951
G1 X-4.464 Y2.144 E.0081
G1 X-4.405 Y1.931 E.00822
G1 X-4.311 Y1.731 E.00822
G1 X-4.182 Y1.551 E.00827
G1 X-4.021 Y1.393 E.0084
G1 X-3.786 Y1.247 E.01031
G1 X-3.61 Y1.106 E.00838
G1 X-3.352 Y1.021 E.01013
G1 X-3.247 Y1.014 E.00391
G1 X-2.983 Y1.011 E.00986
G1 X-2.727 Y1.07 E.00976
G1 X-2.495 Y1.191 E.00976
G1 X-2.303 Y1.355 E.00939
G1 X-2.173 Y1.522 E.00791
G1 E-.8 F2100
;WIPE_START
G1 F3000
G1 X-2.037 Y1.798
G1 X-1.98 Y2.42
G1 X-2.038 Y2.741
G1 X-2.111 Y2.913
G1 X-2.166 Y3.119
G1 X-2.31 Y3.342
G1 X-2.366 Y3.394
;WIPE_END
G1 X-9 Y-.38 Z.6 F30000
G1 X-9.811 Y-.841 Z.6
G1 Z.2
G1 E.8 F2100
;TYPE:Inner wall
G1 F3000
G1 X-9.767 Y-.879 E.00215
G1 X-9.768 Y-.39 E.01821
G1 X-9.96 Y-.33 E.00751
G1 X-10.092 Y-.521 E.00866
G1 X-10.017 Y-.662 E.00593
G1 X-9.841 Y-.815 E.0087
G1 E-.8 F2100
;WIPE_START
G1 F3000
G1 X-9.767 Y-.879
G1 X-9.768 Y-.39
G1 X-9.96 Y-.33
G1 X-10.092 Y-.521
G1 X-10.017 Y-.662
G1 X-9.841 Y-.815
;WIPE_END
G1 X-9.201 Y-2.945 Z.6 F30000
G1 Z.2
G1 E.8 F2100
;TYPE:Outer wall
G1 F3000
G1 X-9.085 Y-3.091 E.00692
G1 X-8.938 Y-3.204 E.00689
G1 X-8.61 Y-3.331 E.0131
G1 X-8.28 Y-3.366 E.01238
G1 X-7.024 Y-3.35 E.04678
G1 X-6.477 Y-3.312 E.02042
G1 X-5.91 Y-3.209 E.02148
G1 X-5.469 Y-3.05 E.01747
G1 X-5.072 Y-2.798 E.01751
G1 X-4.755 Y-2.495 E.01632
G1 X-4.455 Y-2.077 E.0192
G1 X-4.225 Y-1.59 E.02004
G1 X-4.101 Y-1.178 E.01603
G1 X-4.041 Y-.877 E.01142
G1 X-3.989 Y-.369 E.01903
G1 X-4.002 Y.179 E.02042
G1 X-4.067 Y.547 E.01392
G1 X-4.123 Y.732 E.0072
G1 X-4.246 Y1.01 E.01132
G1 X-4.407 Y1.525 E.0201
G1 X-4.524 Y1.778 E.01037
G1 X-4.726 Y2.103 E.01425
G1 X-4.941 Y2.359 E.01244
G1 X-5.07 Y2.56 E.00891
G1 X-5.257 Y2.765 E.01036
G1 X-5.572 Y2.983 E.01425
G1 X-5.807 Y3.091 E.00963
G1 X-6.304 Y3.216 E.01909
G1 X-6.615 Y3.257 E.01169
G1 X-7.147 Y3.284 E.01984
G1 X-7.959 Y3.276 E.03024
G1 X-8.491 Y3.318 E.01988
G1 X-8.665 Y3.295 E.00654
G1 X-8.851 Y3.225 E.00739
G1 X-9.047 Y3.062 E.0095
G1 X-9.183 Y2.838 E.00975
G1 X-9.261 Y2.572 E.01034
G1 X-9.288 Y2.269 E.01134
G1 X-9.271 Y1.663 E.02258
G1 X-9.266 Y-1.946 E.1344
G1 X-9.308 Y-2.574 E.02343
G1 X-9.282 Y-2.753 E.00675
G1 X-9.216 Y-2.909 E.00629
G1 E-.8 F2100
;WIPE_START
G1 F3000
G1 X-9.085 Y-3.091
G1 X-8.938 Y-3.204
G1 X-8.61 Y-3.331
G1 X-8.28 Y-3.366
G1 X-7.374 Y-3.354
;WIPE_END
G1 X-12.071 Y-1.585 Z.6 F30000
G1 Z.2
G1 E.8 F2100
G1 F3000
G1 X-12.105 Y-1.737 E.00579
G1 X-12.177 Y-1.806 E.00372
G1 X-12.317 Y-1.826 E.00527
G1 X-12.492 Y-1.791 E.00663
G1 X-13.145 Y-1.492 E.02675
G1 X-13.357 Y-1.442 E.00813
G1 X-13.548 Y-1.468 E.00716
G1 X-13.747 Y-1.578 E.00848
G1 X-13.933 Y-1.765 E.00981
G1 X-14.04 Y-1.939 E.00764
G1 X-14.09 Y-2.136 E.00756
G1 X-14.093 Y-2.425 E.01075
G1 X-14.001 Y-2.776 E.01352
G1 X-13.874 Y-2.951 E.00807
G1 X-13.646 Y-3.144 E.01112
G1 X-13.35 Y-3.32 E.01281
G1 X-13.011 Y-3.44 E.01341
G1 X-12.639 Y-3.507 E.01408
G1 X-12.39 Y-3.527 E.0093
G1 X-12.002 Y-3.524 E.01446
G1 X-11.702 Y-3.491 E.01124
G1 X-11.351 Y-3.416 E.01337
G1 X-11.127 Y-3.336 E.00886
G1 X-10.833 Y-3.178 E.01243
G1 X-10.655 Y-3.041 E.00838
G1 X-10.433 Y-2.801 E.01217
G1 X-10.268 Y-2.531 E.01178
G1 X-10.195 Y-2.334 E.00785
G1 X-10.153 Y-2.131 E.0077
G1 X-10.143 Y-1.677 E.01692
G1 X-10.257 Y-1.115 E.02135
G1 X-10.414 Y-.979 E.00776
G1 X-10.493 Y-.833 E.00618
G1 X-10.658 Y-.652 E.00911
G1 X-10.904 Y-.492 E.01095
G1 X-10.751 Y-.427 E.0062
G1 X-10.613 Y-.336 E.00616
G1 X-10.493 Y-.222 E.00616
G1 X-10.387 Y-.068 E.007
G1 X-10.182 Y.137 E.01078
G1 X-9.982 Y.632 E.01987
G1 X-9.891 Y1.112 E.0182
G1 X-9.914 Y1.562 E.01678
G1 X-10.042 Y2.023 E.01783
G1 X-10.208 Y2.368 E.01425
G1 X-10.494 Y2.755 E.01794
