; HEADER_BLOCK_START
; generated by OrcaSlicer 2.3.1 on 2025-11-26 at 23:50:36
; total layer number: 173
; filament_density: 1.24,1.24,1.24,1.24
; filament_diameter: 1.75,1.75,1.75,1.75
; max_z_height: 35.00
; HEADER_BLOCK_END

; THUMBNAIL_BLOCK_START

;
; THUMBNAIL_BLOCK_END

; THUMBNAIL_BLOCK_START

;
; THUMBNAIL_BLOCK_END

; external perimeters extrusion width = 0.42mm
; perimeters extrusion width = 0.45mm
; infill extrusion width = 0.45mm
; solid infill extrusion width = 0.42mm
; top infill extrusion width = 0.42mm
; first layer extrusion width = 0.50mm

; EXECUTABLE_BLOCK_START
EXCLUDE_OBJECT_DEFINE NAME=calicat_calico.stl_id_0_copy_0 CENTER=0,0 POLYGON=[[-14.2678,9.24998],[-5.73218,-14.25],[14.2678,-14.25],[14.2678,6.74998],[6.76782,14.25],[-14.2677,14.25],[-14.2678,11.7499],[-14.2678,9.24998]]
M73 P0 R22
M106 S0
M106 P2 S0
;TYPE:Custom
SET_PRINT_STATS_INFO TOTAL_LAYER=175 CURRENT_LAYER=0

START_PRINT EXTRUDER_TEMP=220 BED_TEMP=55 Chamber=0 PRINT_MIN=-7.73218,-16.25 PRINT_MAX=16.2678,16.25 FORCE_LEVELING=true
G90
G21
M83 ; use relative distances for extrusion
; filament start gcode
;right_extruder_material: PLA
SET_PRESSURE_ADVANCE ADVANCE=0.025; Override pressure advance value
T0
M106 S0
M106 P2 S0
;LAYER_CHANGE
;Z:0.2
;HEIGHT:0.2
;BEFORE_LAYER_CHANGE
;0.2
G1 E-.8 F2100
TIMELAPSE_TAKE_FRAME
;AFTER_LAYER_CHANGE
;0.2
SET_PRINT_STATS_INFO CURRENT_LAYER=1
M117 Layer 1/175 : Flashforge Generic PLA
;_SET_FAN_SPEED_CHANGING_LAYER
SET_VELOCITY_LIMIT ACCEL=500
; printing object calicat_calico.stl id:0 copy 0
EXCLUDE_OBJECT_START NAME=calicat_calico.stl_id_0_copy_0
G1 X7.168 Y-6.15 F30000
G1 Z.6
G1 Z.2
G1 E.8 F2100
;TYPE:Inner wall
;WIDTH:0.5
G1 F3000
G1 X7.168 Y-13.35 E.26817
G1 X13.368 Y-13.35 E.23093
G1 X13.368 Y-6.15 E.26817
G1 X7.208 Y-6.15 E.22944
G1 X6.668 Y-5.65 F30000
;TYPE:Outer wall
G1 F3000
G1 X6.668 Y-13.85 E.30542
G1 X13.868 Y-13.85 E.26817
G1 X13.868 Y-5.65 E.30542
G1 X6.708 Y-5.65 E.26668
G1 E-.8 F2100
;WIPE_START
G1 F3000
G1 X6.698 Y-7.65
;WIPE_END
G1 X12.922 Y-12.068 Z.6 F30000
G1 X13.231 Y-12.288 Z.6
G1 Z.2
G1 E.8 F2100
;TYPE:Bottom surface
;WIDTH:0.500522
G1 F4800
G1 X12.511 Y-13.007 E.03794
G1 X11.864 Y-13.007 E.02413
G1 X13.025 Y-11.846 E.06122
G1 X13.025 Y-11.199 E.02413
G1 X11.217 Y-13.007 E.09534
G1 X10.57 Y-13.007 E.02413
G1 X13.025 Y-10.552 E.12947
G1 X13.025 Y-9.905 E.02413
G1 X9.923 Y-13.007 E.1636
G1 X9.276 Y-13.007 E.02413
G1 X13.025 Y-9.258 E.19772
G1 X13.025 Y-8.611 E.02413
G1 X8.628 Y-13.007 E.23185
G1 X7.981 Y-13.007 E.02413
G1 X13.025 Y-7.963 E.26598
G1 X13.025 Y-7.316 E.02413
G1 X7.511 Y-12.831 E.2908
G1 X7.511 Y-12.184 E.02413
M73 P0 R21
G1 X13.025 Y-6.669 E.2908
G1 X13.025 Y-6.493 E.00658
G1 X12.554 Y-6.493 E.01755
G1 X7.511 Y-11.536 E.26597
G1 X7.511 Y-10.889 E.02413
G1 X11.907 Y-6.493 E.23184
G1 X11.26 Y-6.493 E.02413
G1 X7.511 Y-10.242 E.19772
G1 X7.511 Y-9.595 E.02413
G1 X10.613 Y-6.493 E.16359
G1 X9.966 Y-6.493 E.02413
G1 X7.511 Y-8.948 E.12946
G1 X7.511 Y-8.301 E.02413
G1 X9.319 Y-6.493 E.09534
G1 X8.671 Y-6.493 E.02413
G1 X7.511 Y-7.654 E.06121
G1 X7.511 Y-7.006 E.02413
G1 X8.23 Y-6.287 E.03793
G1 E-.8 F2100
;WIPE_START
G1 F4800
G1 X7.511 Y-7.006
G1 X7.511 Y-7.654
G1 X7.748 Y-7.416
;WIPE_END
G1 X1.368 Y-6.15 Z.6 F30000
G1 Z.2
G1 E.8 F2100
;TYPE:Inner wall
;WIDTH:0.5
G1 F3000
G1 X-4.832 Y-6.15 E.23093
G1 X-4.832 Y-13.35 E.26817
G1 X1.368 Y-13.35 E.23093
G1 X1.368 Y-6.19 E.26668
G1 X1.868 Y-5.65 F30000
;TYPE:Outer wall
G1 F3000
G1 X-5.332 Y-5.65 E.26817
G1 X-5.332 Y-13.85 E.30542
G1 X1.868 Y-13.85 E.26817
G1 X1.868 Y-5.69 E.30393
G1 E-.8 F2100
;WIPE_START
G1 F3000
G1 X-.132 Y-5.679
;WIPE_END
G1 X1.231 Y-12.288 Z.6 F30000
G1 Z.2
G1 E.8 F2100
;TYPE:Bottom surface
;WIDTH:0.500522
G1 F4800
G1 X.511 Y-13.007 E.03794
G1 X-.136 Y-13.007 E.02413
G1 X1.025 Y-11.846 E.06122
G1 X1.025 Y-11.199 E.02413
G1 X-.783 Y-13.007 E.09534
G1 X-1.43 Y-13.007 E.02413
G1 X1.025 Y-10.552 E.12947
G1 X1.025 Y-9.905 E.02413
G1 X-2.077 Y-13.007 E.1636
G1 X-2.724 Y-13.007 E.02413
G1 X1.025 Y-9.258 E.19772
G1 X1.025 Y-8.611 E.02413
G1 X-3.372 Y-13.007 E.23185
G1 X-4.019 Y-13.007 E.02413
G1 X1.025 Y-7.963 E.26598
G1 X1.025 Y-7.316 E.02413
G1 X-4.489 Y-12.831 E.2908
G1 X-4.489 Y-12.184 E.02413
G1 X1.025 Y-6.669 E.2908
G1 X1.025 Y-6.493 E.00658
G1 X.554 Y-6.493 E.01755
G1 X-4.489 Y-11.536 E.26597
G1 X-4.489 Y-10.889 E.02413
G1 X-.093 Y-6.493 E.23184
G1 X-.74 Y-6.493 E.02413
G1 X-4.489 Y-10.242 E.19772
G1 X-4.489 Y-9.595 E.02413
G1 X-1.387 Y-6.493 E.16359
G1 X-2.034 Y-6.493 E.02413
G1 X-4.489 Y-8.948 E.12946
G1 X-4.489 Y-8.301 E.02413
G1 X-2.681 Y-6.493 E.09534
G1 X-3.329 Y-6.493 E.02413
G1 X-4.489 Y-7.654 E.06121
G1 X-4.489 Y-7.006 E.02413
G1 X-3.77 Y-6.287 E.03793
G1 E-.8 F2100
;WIPE_START
G1 F4800
G1 X-4.489 Y-7.006
G1 X-4.489 Y-7.654
G1 X-4.252 Y-7.416
;WIPE_END
G1 X-.722 Y-.649 Z.6 F30000
G1 X2.668 Y5.85 Z.6
G1 Z.2
G1 E.8 F2100
;TYPE:Inner wall
;WIDTH:0.5
G1 F3000
G1 X-4.832 Y5.85 E.27935
G1 X-4.832 Y-1.35 E.26817
G1 X1.368 Y-1.35 E.23093
M73 P1 R21
G1 X1.368 Y3.65 E.18623
G1 X7.168 Y3.65 E.21603
G1 X7.168 Y-1.35 E.18623
G1 X13.368 Y-1.35 E.23093
G1 X13.368 Y5.85 E.26817
G1 X5.868 Y5.85 E.27935
G1 X5.868 Y13.35 E.27935
G1 X-1.968 Y13.35 E.29184
G1 X-1.968 Y10.15 E.11919
G1 X2.668 Y10.15 E.17266
G1 X2.668 Y5.89 E.15867
G1 X2.168 Y6.35 F30000
;TYPE:Outer wall
G1 F3000
G1 X-5.332 Y6.35 E.27935
G1 X-5.332 Y-1.85 E.30542
G1 X1.868 Y-1.85 E.26817
G1 X1.868 Y3.15 E.18623
G1 X6.668 Y3.15 E.17878
G1 X6.668 Y-1.85 E.18623
G1 X13.868 Y-1.85 E.26817
G1 X13.868 Y6.35 E.30542
G1 X6.368 Y6.35 E.27935
G1 X6.368 Y13.85 E.27935
G1 X-2.468 Y13.85 E.32909
G1 X-2.468 Y9.65 E.15643
G1 X2.168 Y9.65 E.17266
G1 X2.168 Y6.39 E.12142
G1 E-.8 F2100
;WIPE_START
G1 F3000
G1 X.168 Y6.379
;WIPE_END
G1 X6.969 Y2.916 Z.6 F30000
G1 X13.231 Y-.273 Z.6
G1 Z.2
G1 E.8 F2100
;TYPE:Bottom surface
;WIDTH:0.507701
G1 F4800
G1 X12.496 Y-1.007 E.03935
G1 X11.839 Y-1.007 E.02489
G1 X13.025 Y.179 E.06354
G1 X13.025 Y.836 E.02489
G1 X11.181 Y-1.007 E.09874
G1 X10.524 Y-1.007 E.02489
G1 X13.025 Y1.494 E.13395
G1 X13.025 Y2.151 E.02489
G1 X9.867 Y-1.007 E.16915
G1 X9.21 Y-1.007 E.02489
G1 X13.025 Y2.808 E.20436
G1 X13.025 Y3.466 E.02489
G1 X8.552 Y-1.007 E.23957
G1 X7.895 Y-1.007 E.02489
G1 X13.025 Y4.123 E.27477
G1 X13.025 Y4.78 E.02489
G1 X7.511 Y-.734 E.29536
G1 X7.511 Y-.077 E.02489
G1 X13.025 Y5.437 E.29536
G1 X13.025 Y5.507 E.00264
G1 X12.437 Y5.507 E.02225
G1 X7.511 Y.58 E.26389
G1 X7.511 Y1.238 E.02489
G1 X11.78 Y5.507 E.22868
G1 X11.123 Y5.507 E.02489
G1 X7.511 Y1.895 E.19348
G1 X7.511 Y2.552 E.02489
G1 X10.466 Y5.507 E.15827
G1 X9.808 Y5.507 E.02489
G1 X7.511 Y3.21 E.12307
G1 X7.511 Y3.867 E.02489
G1 X9.151 Y5.507 E.08786
G1 X8.494 Y5.507 E.02489
G1 X6.979 Y3.993 E.08111
G1 X6.322 Y3.993 E.02489
G1 X7.836 Y5.507 E.08111
G1 X7.179 Y5.507 E.02489
G1 X5.665 Y3.993 E.08111
G1 X5.007 Y3.993 E.02489
G1 X6.522 Y5.507 E.08111
G1 X5.864 Y5.507 E.02489
G1 X4.35 Y3.993 E.08111
G1 X3.693 Y3.993 E.02489
G1 X5.525 Y5.825 E.09814
G1 X5.525 Y6.482 E.02489
G1 X3.035 Y3.993 E.13334
G1 X2.378 Y3.993 E.02489
G1 X5.525 Y7.14 E.16855
G1 X5.525 Y7.797 E.02489
G1 X1.515 Y3.787 E.21477
G1 E-.8 F2100
;WIPE_START
G1 F4800
G1 X2.929 Y5.201
;WIPE_END
G1 X1.231 Y-.441 Z.6 F30000
G1 Z.2
G1 E.8 F2100
G1 F4800
G1 X.665 Y-1.007 E.03032
G1 X.007 Y-1.007 E.02489
G1 X1.025 Y.01 E.05451
G1 X1.025 Y.668 E.02489
G1 X-.65 Y-1.007 E.08971
G1 X-1.307 Y-1.007 E.02489
G1 X1.025 Y1.325 E.12492
G1 X1.025 Y1.982 E.02489
G1 X-1.965 Y-1.007 E.16012
G1 X-2.622 Y-1.007 E.02489
G1 X1.025 Y2.64 E.19533
G1 X1.025 Y3.297 E.02489
G1 X-3.279 Y-1.007 E.23054
G1 X-3.936 Y-1.007 E.02489
G1 X2.578 Y5.507 E.34892
G1 X3.011 Y5.507 E.01639
G1 X3.011 Y5.94 E.01639
G1 X5.525 Y8.454 E.13468
G1 X5.525 Y9.112 E.02489
G1 X3.011 Y6.597 E.13468
G1 X3.011 Y7.254 E.02489
G1 X5.525 Y9.769 E.13468
G1 X5.525 Y10.426 E.02489
G1 X3.011 Y7.912 E.13468
G1 X3.011 Y8.569 E.02489
G1 X5.525 Y11.083 E.13468
G1 X5.525 Y11.741 E.02489
G1 X3.011 Y9.226 E.13468
G1 X3.011 Y9.884 E.02489
M73 P2 R21
G1 X5.525 Y12.398 E.13468
G1 X5.525 Y13.007 E.02307
G1 X5.477 Y13.007 E.00182
G1 X2.962 Y10.493 E.13468
G1 X2.305 Y10.493 E.02489
G1 X4.82 Y13.007 E.13468
G1 X4.162 Y13.007 E.02489
G1 X1.648 Y10.493 E.13468
G1 X.991 Y10.493 E.02489
G1 X3.505 Y13.007 E.13468
G1 X2.848 Y13.007 E.02489
G1 X.333 Y10.493 E.13468
G1 X-.324 Y10.493 E.02489
G1 X2.19 Y13.007 E.13468
G1 X1.533 Y13.007 E.02489
G1 X-.981 Y10.493 E.13468
G1 X-1.625 Y10.493 E.02438
G1 X-1.625 Y10.506 E.00052
G1 X.876 Y13.007 E.13394
G1 X.218 Y13.007 E.02489
G1 X-1.625 Y11.164 E.09874
G1 X-1.625 Y11.821 E.02489
G1 X-.439 Y13.007 E.06353
G1 X-1.096 Y13.007 E.02489
G1 X-1.831 Y12.273 E.03934
G1 E-.8 F2100
;WIPE_START
G1 F4800
G1 X-1.096 Y13.007
G1 X-.439 Y13.007
G1 X-.654 Y12.792
;WIPE_END
G1 X2.126 Y5.713 Z.6 F30000
G1 Z.2
G1 E.8 F2100
G1 F4800
G1 X-4.489 Y-.903 E.35435
G1 X-4.489 Y-.246 E.02489
G1 X1.263 Y5.507 E.30813
G1 X.606 Y5.507 E.02489
G1 X-4.489 Y.412 E.27292
G1 X-4.489 Y1.069 E.02489
G1 X-.051 Y5.507 E.23772
G1 X-.709 Y5.507 E.02489
G1 X-4.489 Y1.726 E.20251
G1 X-4.489 Y2.384 E.02489
G1 X-1.366 Y5.507 E.1673
G1 X-2.023 Y5.507 E.02489
G1 X-4.489 Y3.041 E.1321
G1 X-4.489 Y3.698 E.02489
G1 X-2.68 Y5.507 E.09689
G1 X-3.338 Y5.507 E.02489
G1 X-4.489 Y4.356 E.06169
G1 X-4.489 Y5.013 E.02489
G1 X-3.789 Y5.713 E.0375
; stop printing object calicat_calico.stl id:0 copy 0
M106 S255
M106 P2 S255
;LAYER_CHANGE
;Z:0.4
;HEIGHT:0.2
;BEFORE_LAYER_CHANGE
;0.4
G1 E-.8 F2100
;WIPE_START
G1 F4800
G1 X-4.489 Y5.013
G1 X-4.489 Y4.356
G1 X-4.24 Y4.605
;WIPE_END
EXCLUDE_OBJECT_END NAME=calicat_calico.stl_id_0_copy_0
TIMELAPSE_TAKE_FRAME
;AFTER_LAYER_CHANGE
;0.4
SET_PRINT_STATS_INFO CURRENT_LAYER=2
M117 Layer 2/175 : Flashforge Generic PLA
;_SET_FAN_SPEED_CHANGING_LAYER
SET_VELOCITY_LIMIT ACCEL=10000
M140 S50 ; set bed temperature
; printing object calicat_calico.stl id:0 copy 0
EXCLUDE_OBJECT_START NAME=calicat_calico.stl_id_0_copy_0
G17
G3 Z.8 I.834 J.886 P1  F30000
G1 X6.913 Y-5.895 Z.8
G1 Z.4
G1 E.8 F2100
SET_VELOCITY_LIMIT ACCEL=5000
;TYPE:Inner wall
;WIDTH:0.45
G1 F11218
G1 X6.913 Y-13.605 E.25575
G1 X13.623 Y-13.605 E.22258
G1 X13.623 Y-5.895 E.25575
G1 X6.953 Y-5.895 E.22126
SET_VELOCITY_LIMIT ACCEL=10000
G1 X6.478 Y-5.46 F30000
SET_VELOCITY_LIMIT ACCEL=5000
;TYPE:Outer wall
;WIDTH:0.42
G1 F11218
G1 X6.478 Y-14.04 E.26364
G1 X14.058 Y-14.04 E.23291
G1 X14.058 Y-5.46 E.26364
G1 X6.518 Y-5.46 E.23168
SET_VELOCITY_LIMIT ACCEL=10000
G1 E-.8 F2100
;WIPE_START
G1 F12000
G1 X6.508 Y-7.46
;WIPE_END
G1 X11.875 Y-6.287 Z.8 F30000
G1 Z.4
G1 E.8 F2100
SET_VELOCITY_LIMIT ACCEL=7000
;TYPE:Internal solid infill
;WIDTH:0.419999
G1 F11218
G1 X13.231 Y-6.287 E.04166
G1 X13.231 Y-7.643 E.04166
G1 X11.903 Y-6.315 E.05768
SET_VELOCITY_LIMIT ACCEL=10000
G1 X12.86 Y-6.729 F30000
SET_VELOCITY_LIMIT ACCEL=7000
;WIDTH:0.459962
G1 F11218
G1 X12.808 Y-6.729 E.00177
G1 X12.782 Y-6.684 E.00177
G1 X12.808 Y-6.639 E.00177
G1 X12.866 Y-6.65 E.00201
SET_VELOCITY_LIMIT ACCEL=10000
G1 X13.596 Y-8.491 F30000
SET_VELOCITY_LIMIT ACCEL=7000
;WIDTH:0.423591
G1 F11218
G1 X11.197 Y-6.091 E.10528
G1 X10.658 Y-6.091 E.0167
G1 X13.427 Y-8.86 E.12146
G1 X13.427 Y-9.398 E.0167
G1 X10.12 Y-6.091 E.14507
G1 X9.581 Y-6.091 E.0167
G1 X13.427 Y-9.936 E.16869
G1 X13.427 Y-10.475 E.0167
G1 X9.043 Y-6.091 E.19231
G1 X8.505 Y-6.091 E.0167
G1 X13.427 Y-11.013 E.21592
G1 X13.427 Y-11.551 E.0167
G1 X7.966 Y-6.091 E.23954
G1 X7.428 Y-6.091 E.0167
G1 X13.427 Y-12.09 E.26316
G1 X13.427 Y-12.628 E.0167
G1 X7.109 Y-6.31 E.27716
G1 X7.109 Y-6.849 E.0167
G1 X13.427 Y-13.166 E.27716
G1 X13.427 Y-13.409 E.00752
G1 X13.131 Y-13.409 E.00918
G1 X7.109 Y-7.387 E.26418
G1 X7.109 Y-7.925 E.0167
G1 X12.593 Y-13.409 E.24056
G1 X12.054 Y-13.409 E.0167
G1 X7.109 Y-8.464 E.21695
G1 X7.109 Y-9.002 E.0167
G1 X11.516 Y-13.409 E.19333
G1 X10.978 Y-13.409 E.0167
G1 X7.109 Y-9.54 E.16971
G1 X7.109 Y-10.079 E.0167
G1 X10.439 Y-13.409 E.1461
G1 X9.901 Y-13.409 E.0167
G1 X7.109 Y-10.617 E.12248
G1 X7.109 Y-11.155 E.0167
G1 X9.362 Y-13.409 E.09886
G1 X8.824 Y-13.409 E.0167
G1 X7.109 Y-11.694 E.07525
G1 X7.109 Y-12.232 E.0167
G1 X8.286 Y-13.409 E.05163
G1 X7.747 Y-13.409 E.0167
G1 X6.939 Y-12.601 E.03546
SET_VELOCITY_LIMIT ACCEL=10000
G1 X7.257 Y-13.319 F30000
SET_VELOCITY_LIMIT ACCEL=7000
;WIDTH:0.38292
G1 F11218
G1 X7.193 Y-13.282 E.00204
G1 X7.258 Y-13.247 E.00204
SET_VELOCITY_LIMIT ACCEL=10000
G1 E-.8 F2100
;WIPE_START
G1 F15000
G1 X7.193 Y-13.282
G1 X7.257 Y-13.319
;WIPE_END
G1 X2.643 Y-7.239 Z.8 F30000
G1 X1.623 Y-5.895 Z.8
G1 Z.4
G1 E.8 F2100
SET_VELOCITY_LIMIT ACCEL=5000
;TYPE:Inner wall
;WIDTH:0.45
G1 F11218
G1 X-5.087 Y-5.895 E.22258
G1 X-5.087 Y-13.605 E.25575
G1 X1.623 Y-13.605 E.22258
G1 X1.623 Y-5.935 E.25443
SET_VELOCITY_LIMIT ACCEL=10000
G1 X2.058 Y-5.46 F30000
SET_VELOCITY_LIMIT ACCEL=5000
;TYPE:Outer wall
;WIDTH:0.42
G1 F11218
G1 X-5.522 Y-5.46 E.23291
G1 X-5.522 Y-14.04 E.26364
G1 X2.058 Y-14.04 E.23291
G1 X2.058 Y-5.5 E.26241
SET_VELOCITY_LIMIT ACCEL=10000
G1 E-.8 F2100
;WIPE_START
G1 F12000
G1 X.058 Y-5.489
;WIPE_END
G1 X-.125 Y-6.287 Z.8 F30000
G1 Z.4
G1 E.8 F2100
SET_VELOCITY_LIMIT ACCEL=7000
;TYPE:Internal solid infill
;WIDTH:0.419999
G1 F11218
G1 X1.231 Y-6.287 E.04166
G1 X1.231 Y-7.643 E.04166
G1 X-.097 Y-6.315 E.05768
SET_VELOCITY_LIMIT ACCEL=10000
G1 X.86 Y-6.729 F30000
SET_VELOCITY_LIMIT ACCEL=7000
;WIDTH:0.459962
G1 F11218
G1 X.808 Y-6.729 E.00177
G1 X.782 Y-6.684 E.00177
G1 X.808 Y-6.639 E.00177
G1 X.866 Y-6.65 E.00201
SET_VELOCITY_LIMIT ACCEL=10000
G1 X1.596 Y-8.491 F30000
SET_VELOCITY_LIMIT ACCEL=7000
;WIDTH:0.423591
G1 F11218
G1 X-.803 Y-6.091 E.10528
G1 X-1.342 Y-6.091 E.0167
G1 X1.427 Y-8.86 E.12146
G1 X1.427 Y-9.398 E.0167
G1 X-1.88 Y-6.091 E.14507
G1 X-2.419 Y-6.091 E.0167
G1 X1.427 Y-9.936 E.16869
G1 X1.427 Y-10.475 E.0167
G1 X-2.957 Y-6.091 E.19231
G1 X-3.495 Y-6.091 E.0167
G1 X1.427 Y-11.013 E.21592
G1 X1.427 Y-11.551 E.0167
G1 X-4.034 Y-6.091 E.23954
G1 X-4.572 Y-6.091 E.0167
G1 X1.427 Y-12.09 E.26316
G1 X1.427 Y-12.628 E.0167
G1 X-4.891 Y-6.31 E.27716
G1 X-4.891 Y-6.849 E.0167
G1 X1.427 Y-13.166 E.27716
G1 X1.427 Y-13.409 E.00752
G1 X1.131 Y-13.409 E.00918
G1 X-4.891 Y-7.387 E.26418
G1 X-4.891 Y-7.925 E.0167
G1 X.593 Y-13.409 E.24056
G1 X.054 Y-13.409 E.0167
G1 X-4.891 Y-8.464 E.21695
G1 X-4.891 Y-9.002 E.0167
G1 X-.484 Y-13.409 E.19333
G1 X-1.022 Y-13.409 E.0167
G1 X-4.891 Y-9.54 E.16971
G1 X-4.891 Y-10.079 E.0167
G1 X-1.561 Y-13.409 E.1461
G1 X-2.099 Y-13.409 E.0167
G1 X-4.891 Y-10.617 E.12248
G1 X-4.891 Y-11.155 E.0167
G1 X-2.638 Y-13.409 E.09886
G1 X-3.176 Y-13.409 E.0167
G1 X-4.891 Y-11.694 E.07525
G1 X-4.891 Y-12.232 E.0167
G1 X-3.714 Y-13.409 E.05163
G1 X-4.253 Y-13.409 E.0167
G1 X-5.061 Y-12.601 E.03546
SET_VELOCITY_LIMIT ACCEL=10000
G1 X-4.743 Y-13.319 F30000
SET_VELOCITY_LIMIT ACCEL=7000
;WIDTH:0.38292
G1 F11218
G1 X-4.807 Y-13.282 E.00204
G1 X-4.742 Y-13.247 E.00204
SET_VELOCITY_LIMIT ACCEL=10000
G1 E-.8 F2100
;WIPE_START
G1 F15000
G1 X-4.807 Y-13.282
G1 X-4.743 Y-13.319
;WIPE_END
G1 X-2.104 Y-6.157 Z.8 F30000
G1 X2.413 Y6.105 Z.8
G1 Z.4
G1 E.8 F2100
SET_VELOCITY_LIMIT ACCEL=5000
;TYPE:Inner wall
;WIDTH:0.45
G1 F11218
G1 X-5.087 Y6.105 E.24879
G1 X-5.087 Y-1.605 E.25575
G1 X1.623 Y-1.605 E.22258
G1 X1.623 Y3.395 E.16586
G1 X6.913 Y3.395 E.17548
G1 X6.913 Y-1.605 E.16586
G1 X13.623 Y-1.605 E.22258
G1 X13.623 Y6.105 E.25575
G1 X6.123 Y6.105 E.24879
G1 X6.123 Y13.605 E.24879
G1 X-2.423 Y13.605 E.28347
G1 X-2.423 Y9.895 E.12307
G1 X2.413 Y9.895 E.1604
G1 X2.413 Y6.145 E.12439
SET_VELOCITY_LIMIT ACCEL=10000
G1 X1.978 Y6.54 F30000
SET_VELOCITY_LIMIT ACCEL=5000
;TYPE:Outer wall
;WIDTH:0.42
G1 F11218
G1 X1.435 Y6.54 E.01668
G1 X-4.892 Y6.54 E.19441
G1 X-5.522 Y6.54 E.01936
G1 X-5.522 Y-2.04 E.26364
G1 X2.058 Y-2.04 E.23291
G1 X2.058 Y-1.41 E.01936
G1 X2.058 Y2.417 E.11759
G1 X2.058 Y2.96 E.01668
G1 X2.601 Y2.96 E.01668
G1 X5.935 Y2.96 E.10244
G1 X6.478 Y2.96 E.01668
G1 X6.478 Y2.417 E.01668
G1 X6.478 Y-1.41 E.11759
G1 X6.478 Y-2.04 E.01936
G1 X14.058 Y-2.04 E.23291
G1 X14.058 Y6.54 E.26364
G1 X13.428 Y6.54 E.01936
G1 X7.101 Y6.54 E.19441
G1 X6.558 Y6.54 E.01668
G1 X6.558 Y7.083 E.01668
G1 X6.558 Y13.41 E.19441
