; HEADER_BLOCK_START
; generated by OrcaSlicer 2.3.1 on 2025-11-26 at 23:54:08
; total layer number: 16
; filament_density: 1.24,1.24,1.24,1.24
; filament_diameter: 1.75,1.75,1.75,1.75
; max_z_height: 3.20
; HEADER_BLOCK_END

; THUMBNAIL_BLOCK_START

;
; THUMBNAIL_BLOCK_END

; THUMBNAIL_BLOCK_START

;
; THUMBNAIL_BLOCK_END

; external perimeters extrusion width = 0.42mm
; perimeters extrusion width = 0.45mm
; infill extrusion width = 0.45mm
; solid infill extrusion width = 0.42mm
; top infill extrusion width = 0.42mm
; first layer extrusion width = 0.50mm

; EXECUTABLE_BLOCK_START
EXCLUDE_OBJECT_DEFINE NAME=stand_s.stl_id_0_copy_0 CENTER=0,0 POLYGON=[[-26,-35.5],[-25.9891,-35.8623],[-25.9563,-36.2232],[-25.9017,-36.5815],[-25.8257,-36.9359],[-25.7283,-37.285],[-25.6101,-37.6276],[-25.4714,-37.9625],[-25.3127,-38.2883],[-25.1347,-38.604],[-24.9379,-38.9084],[-24.7231,-39.2003],[-24.4911,-39.4787],[-24.2426,-39.7426],[-23.9787,-39.9911],[-23.7003,-40.2231],[-23.4084,-40.4379],[-23.104,-40.6347],[-22.7883,-40.8127],[-22.4625,-40.9714],[-22.1276,-41.1101],[-21.785,-41.2283],[-21.4359,-41.3256],[-21.0815,-41.4017],[-20.7232,-41.4563],[-20.3623,-41.4891],[-20,-41.5],[20,-41.5],[20.3623,-41.4891],[20.7232,-41.4563],[21.0815,-41.4017],[21.4359,-41.3256],[21.785,-41.2283],[22.1276,-41.1101],[22.4625,-40.9714],[22.7883,-40.8127],[23.104,-40.6347],[23.4084,-40.4379],[23.7003,-40.2231],[23.9787,-39.9911],[24.2426,-39.7426],[24.4911,-39.4787],[24.7231,-39.2003],[24.9379,-38.9084],[25.1347,-38.604],[25.3127,-38.2883],[25.4714,-37.9625],[25.6101,-37.6276],[25.7283,-37.285],[25.8257,-36.9359],[25.9017,-36.5815],[25.9563,-36.2232],[25.9891,-35.8623],[26,-35.5],[26,35.5],[25.9896,35.8525],[25.9891,35.8623],[25.9586,36.2037],[25.9563,36.2232],[25.907,36.5526],[25.9017,36.5815],[25.8349,36.8978],[25.8257,36.9359],[25.7427,37.2381],[25.7283,37.285],[25.6307,37.5725],[25.6101,37.6276],[25.4992,37.8997],[25.4714,37.9625],[25.3488,38.2186],[25.3127,38.2883],[25.1798,38.5281],[25.1347,38.604],[24.993,38.8272],[24.9379,38.9084],[24.7889,39.1148],[24.7231,39.2003],[24.5683,39.3898],[24.4911,39.4787],[24.3319,39.6515],[24.2426,39.7426],[24.0805,39.8988],[23.9787,39.9911],[23.8151,40.1309],[23.7003,40.2231],[23.5364,40.347],[23.4084,40.4379],[23.2456,40.5464],[23.104,40.6347],[22.9435,40.7284],[22.7883,40.8127],[22.6313,40.8923],[22.4625,40.9714],[22.31,41.0375],[22.1276,41.1101],[22.0668,41.1328],[21.8093,41.2207],[21.785,41.2283],[21.5379,41.2996],[21.4359,41.3256],[21.2531,41.3677],[21.0815,41.4017],[20.9557,41.4233],[20.8025,41.446],[20.7232,41.4563],[20.6467,41.4649],[20.4883,41.48],[20.3623,41.4891],[20.3276,41.491],[20.1648,41.4977],[20,41.5],[-20,41.5],[-20.1648,41.4977],[-20.3277,41.491],[-20.3623,41.4891],[-20.4885,41.4801],[-20.6469,41.465],[-20.7232,41.4563],[-20.8027,41.4461],[-20.9558,41.4234],[-21.0815,41.4017],[-21.253,41.3677],[-21.4359,41.3256],[-21.5377,41.2995],[-21.785,41.2283],[-21.8093,41.2207],[-22.0668,41.1328],[-22.1276,41.1101],[-22.31,41.0375],[-22.4625,40.9714],[-22.6313,40.8923],[-22.7883,40.8127],[-22.9435,40.7284],[-23.104,40.6347],[-23.2456,40.5464],[-23.4084,40.4379],[-23.5364,40.347],[-23.7003,40.2231],[-23.8151,40.1309],[-23.9787,39.9911],[-24.0805,39.8988],[-24.2426,39.7426],[-24.3319,39.6515],[-24.4911,39.4787],[-24.5683,39.3898],[-24.7231,39.2003],[-24.7889,39.1148],[-24.9379,38.9084],[-24.993,38.8272],[-25.1347,38.604],[-25.1798,38.5281],[-25.3127,38.2883],[-25.3488,38.2186],[-25.4714,37.9625],[-25.4992,37.8997],[-25.6101,37.6276],[-25.6307,37.5725],[-25.7283,37.285],[-25.7427,37.2381],[-25.8257,36.9359],[-25.8349,36.8978],[-25.9017,36.5815],[-25.907,36.5526],[-25.9563,36.2232],[-25.9586,36.2037],[-25.9891,35.8623],[-25.9896,35.8525],[-26,35.5],[-26,-35.5]]
M73 P0 R23
M106 S0
M106 P2 S0
;TYPE:Custom
SET_PRINT_STATS_INFO TOTAL_LAYER=16 CURRENT_LAYER=0

START_PRINT EXTRUDER_TEMP=220 BED_TEMP=55 Chamber=0 PRINT_MIN=-27.8887,-43.3887 PRINT_MAX=27.8887,43.3887 FORCE_LEVELING=true
G90
G21
M83 ; use relative distances for extrusion
T1
; filament start gcode
;right_extruder_material: PLA
SET_PRESSURE_ADVANCE ADVANCE=0.025; Override pressure advance value
M106 S0
M106 P2 S0
;LAYER_CHANGE
;Z:0.2
;HEIGHT:0.2
;BEFORE_LAYER_CHANGE
;0.2
G1 E-.8 F2100
TIMELAPSE_TAKE_FRAME
;AFTER_LAYER_CHANGE
;0.2
SET_PRINT_STATS_INFO CURRENT_LAYER=1
M117 Layer 1/16 : Flashforge Generic PLA
;_SET_FAN_SPEED_CHANGING_LAYER
SET_VELOCITY_LIMIT ACCEL=500
; printing object stand_s.stl id:0 copy 0
EXCLUDE_OBJECT_START NAME=stand_s.stl_id_0_copy_0
G1 X19.802 Y-20.584 F30000
G1 Z.6
G1 Z.2
G1 E.8 F2100
;TYPE:Inner wall
;WIDTH:0.5
G1 F3000
G1 X19.765 Y-20.354 E.00871
G1 X19.71 Y-19.805 E.02055
G1 X19.689 Y-18.773 E.03844
G1 X19.689 Y11.148 E1.11445
G1 X19.667 Y11.148 E.00082
G1 X19.667 Y17.419 E.23356
G1 X19.631 Y17.817 E.01488
G1 X19.553 Y18.341 E.01973
G1 X19.396 Y19.072 E.02787
G1 X19.285 Y19.463 E.01513
G1 X18.993 Y20.265 E.03179
G1 X18.631 Y21.028 E.03146
G1 X18.197 Y21.758 E.03165
G1 X17.895 Y22.183 E.01941
G1 X17.43 Y22.758 E.02754
G1 X16.84 Y23.364 E.03151
G1 X16.197 Y23.911 E.03146
G1 X15.498 Y24.401 E.03179
G1 X15.146 Y24.612 E.01527
G1 X14.677 Y24.859 E.01974
G1 X14.002 Y25.16 E.02754
G1 X13.193 Y25.436 E.03184
G1 X12.793 Y25.542 E.01541
G1 X12.389 Y25.628 E.0154
G1 X11.544 Y25.748 E.03179
G1 X10.681 Y25.789 E.03217
G1 X-11.123 Y25.778 E.81211
G1 X-11.964 Y25.699 E.03146
G1 X-12.794 Y25.541 E.03146
G1 X-13.613 Y25.303 E.03178
G1 X-13.993 Y25.164 E.01508
G1 X-14.772 Y24.813 E.03178
G1 X-15.513 Y24.392 E.03179
G1 X-15.85 Y24.167 E.01508
G1 X-16.526 Y23.645 E.03179
G1 X-17.142 Y23.068 E.03146
G1 X-17.702 Y22.436 E.03146
G1 X-18.206 Y21.747 E.03179
G1 X-18.421 Y21.404 E.01508
G1 X-18.822 Y20.651 E.03179
G1 X-19.151 Y19.863 E.03178
G1 X-19.281 Y19.48 E.01508
G1 X-19.498 Y18.645 E.03211
G1 X-19.572 Y18.245 E.01516
G1 X-19.69 Y17.265 E.03679
G1 X-19.69 Y-19.27 E1.36079
G1 X-19.698 Y-19.798 E.01966
G1 X-19.746 Y-20.363 E.02112
G1 X-19.789 Y-20.579 E.0082
G1 X-19.053 Y-20.517 E.02754
G1 X-18.528 Y-20.509 E.01954
G1 X-11.311 Y-20.511 E.2688
G1 X-11.311 Y24.811 E1.68807
G1 X11.311 Y24.811 E.84261
G1 X11.311 Y-20.513 E1.68818
G1 X18.598 Y-20.509 E.27138
G1 X19.118 Y-20.521 E.0194
G1 X19.763 Y-20.581 E.0241
G1 X20.376 Y-21.003 F30000
;TYPE:Outer wall
G1 F3000
G1 X20.261 Y-20.289 E.02693
G1 X20.209 Y-19.775 E.01925
G1 X20.189 Y-18.768 E.0375
G1 X20.189 Y11.648 E1.13289
G1 X20.167 Y11.648 E.00082
G1 X20.167 Y17.442 E.21578
G1 X20.127 Y17.876 E.01624
G1 X20.046 Y18.43 E.02086
G1 X19.882 Y19.194 E.02909
G1 X19.761 Y19.617 E.01641
G1 X19.455 Y20.458 E.03332
G1 X19.073 Y21.264 E.03321
G1 X18.616 Y22.031 E.03327
G1 X18.294 Y22.486 E.02075
G1 X17.804 Y23.09 E.02898
G1 X17.182 Y23.73 E.03323
G1 X16.503 Y24.307 E.03321
G1 X15.77 Y24.821 E.03332
G1 X15.391 Y25.048 E.01646
G1 X14.895 Y25.309 E.02086
G1 X14.185 Y25.626 E.02898
G1 X13.338 Y25.915 E.03334
G1 X12.909 Y26.028 E.0165
G1 X12.476 Y26.121 E.0165
G1 X11.591 Y26.247 E.03332
G1 X10.692 Y26.289 E.03349
G1 X-11.147 Y26.278 E.81343
G1 X-12.034 Y26.194 E.03321
G1 X-12.91 Y26.028 E.03321
G1 X-13.77 Y25.779 E.03332
G1 X-14.183 Y25.627 E.01639
G1 X-14.998 Y25.26 E.03332
G1 X-15.776 Y24.817 E.03332
G1 X-16.142 Y24.574 E.01639
G1 X-16.85 Y24.026 E.03332
G1 X-17.501 Y23.417 E.03321
G1 X-18.092 Y22.75 E.03321
G1 X-18.62 Y22.027 E.03332
G1 X-18.854 Y21.655 E.01639
G1 X-19.274 Y20.865 E.03332
G1 X-19.619 Y20.04 E.03332
G1 X-19.76 Y19.623 E.01639
G1 X-19.986 Y18.754 E.03343
G1 X-20.067 Y18.321 E.01642
G1 X-20.19 Y17.295 E.0385
G1 X-20.19 Y-19.267 E1.36177
G1 X-20.198 Y-19.773 E.01888
G1 X-20.242 Y-20.293 E.01941
G1 X-20.385 Y-21.003 E.02699
G1 X-22.947 Y-21.012 E.09541
G1 X-23.254 Y-21.085 E.01177
G1 X-22.932 Y-21.158 E.01229
G1 X-20.026 Y-21.158 E.10825
G1 X-19.543 Y-21.06 E.01833
G1 X-19.028 Y-21.016 E.01928
G1 X-18.524 Y-21.009 E.01875
G1 X-10.811 Y-21.011 E.28728
G1 X-10.811 Y24.311 E1.68808
G1 X10.811 Y24.311 E.80536
M73 P0 R22
G1 X10.811 Y-21.014 E1.68818
G1 X18.592 Y-21.01 E.2898
G1 X19.09 Y-21.021 E.01854
G1 X19.596 Y-21.068 E.01895
G1 X20.071 Y-21.158 E.018
G1 X22.939 Y-21.158 E.10681
G1 X23.254 Y-21.094 E.01197
G1 X23.254 Y-21.077 E.00062
G1 X22.947 Y-21.012 E.01169
G1 X20.416 Y-21.003 E.09427
G1 E-.8 F2100
;WIPE_START
G1 F3000
G1 X20.261 Y-20.289
G1 X20.209 Y-19.775
G1 X20.194 Y-19.022
;WIPE_END
G1 X19.568 Y-19.572 Z.6 F30000
G1 Z.2
G1 E.8 F2100
;TYPE:Bottom surface
;WIDTH:0.503576
G1 F4800
G1 X18.965 Y-20.175 E.03199
G1 X18.322 Y-20.167 E.02415
G1 X19.354 Y-19.135 E.05476
G1 X19.346 Y-18.491 E.02419
G1 X17.67 Y-20.167 E.08898
G1 X17.018 Y-20.168 E.02447
G1 X19.346 Y-17.84 E.12358
G1 X19.346 Y-17.188 E.02445
G1 X16.367 Y-20.168 E.15818
G1 X15.715 Y-20.168 E.02447
G1 X19.346 Y-16.537 E.19279
G1 X19.346 Y-15.885 E.02445
G1 X15.063 Y-20.169 E.22739
G1 X14.411 Y-20.169 E.02447
G1 X19.346 Y-15.234 E.26199
G1 X19.346 Y-14.582 E.02445
G1 X13.759 Y-20.169 E.29659
M73 P1 R22
G1 X13.108 Y-20.17 E.02447
G1 X19.346 Y-13.931 E.33119
G1 X19.346 Y-13.279 E.02445
G1 X12.456 Y-20.17 E.3658
G1 X11.804 Y-20.17 E.02447
G1 X19.346 Y-12.628 E.4004
G1 X19.346 Y-11.977 E.02445
G1 X11.654 Y-19.669 E.40835
G1 X11.654 Y-19.017 E.02445
G1 X19.346 Y-11.325 E.40835
G1 X19.346 Y-10.674 E.02445
G1 X11.654 Y-18.366 E.40835
G1 X11.654 Y-17.714 E.02445
G1 X19.346 Y-10.022 E.40835
G1 X19.346 Y-9.371 E.02445
G1 X11.654 Y-17.063 E.40835
G1 X11.654 Y-16.411 E.02445
G1 X19.346 Y-8.719 E.40835
G1 X19.346 Y-8.068 E.02445
G1 X11.654 Y-15.76 E.40835
G1 X11.654 Y-15.108 E.02445
G1 X19.346 Y-7.416 E.40835
G1 X19.346 Y-6.765 E.02445
G1 X11.654 Y-14.457 E.40835
G1 X11.654 Y-13.806 E.02445
G1 X19.346 Y-6.113 E.40834
G1 X19.346 Y-5.462 E.02445
G1 X11.654 Y-13.154 E.40834
G1 X11.654 Y-12.503 E.02445
G1 X19.346 Y-4.811 E.40834
G1 X19.346 Y-4.159 E.02445
G1 X11.654 Y-11.851 E.40834
G1 X11.654 Y-11.2 E.02445
G1 X19.346 Y-3.508 E.40834
G1 X19.346 Y-2.856 E.02445
G1 X11.654 Y-10.548 E.40834
G1 X11.654 Y-9.897 E.02445
G1 X19.346 Y-2.205 E.40834
G1 X19.346 Y-1.553 E.02445
G1 X11.654 Y-9.245 E.40834
G1 X11.654 Y-8.594 E.02445
G1 X19.346 Y-.902 E.40834
G1 X19.346 Y-.25 E.02445
G1 X11.654 Y-7.942 E.40834
G1 X11.654 Y-7.291 E.02445
G1 X19.346 Y.401 E.40834
G1 X19.346 Y1.053 E.02445
G1 X11.654 Y-6.639 E.40834
G1 X11.654 Y-5.988 E.02445
G1 X19.346 Y1.704 E.40834
G1 X19.346 Y2.355 E.02445
G1 X11.654 Y-5.336 E.40834
G1 X11.654 Y-4.685 E.02445
G1 X19.346 Y3.007 E.40834
G1 X19.346 Y3.658 E.02445
G1 X11.654 Y-4.034 E.40833
G1 X11.654 Y-3.382 E.02445
G1 X19.346 Y4.31 E.40833
G1 X19.346 Y4.961 E.02445
G1 X11.654 Y-2.731 E.40833
G1 X11.654 Y-2.079 E.02445
G1 X19.346 Y5.613 E.40833
G1 X19.346 Y6.264 E.02445
G1 X11.654 Y-1.428 E.40833
G1 X11.654 Y-.776 E.02445
G1 X19.346 Y6.916 E.40833
G1 X19.346 Y7.567 E.02445
G1 X11.654 Y-.125 E.40833
G1 X11.654 Y.527 E.02445
G1 X19.346 Y8.219 E.40833
G1 X19.346 Y8.87 E.02445
G1 X11.654 Y1.178 E.40833
G1 X11.654 Y1.83 E.02445
G1 X19.346 Y9.521 E.40833
G1 X19.346 Y10.173 E.02445
G1 X11.654 Y2.481 E.40833
G1 X11.654 Y3.133 E.02445
G1 X19.327 Y10.805 E.40732
G1 X19.324 Y11.454 E.02434
G1 X11.654 Y3.784 E.40716
G1 X11.654 Y4.436 E.02445
G1 X19.324 Y12.105 E.40716
G1 X19.324 Y12.757 E.02445
G1 X11.654 Y5.087 E.40716
G1 X11.654 Y5.738 E.02445
G1 X19.324 Y13.408 E.40716
G1 X19.324 Y14.06 E.02445
G1 X11.654 Y6.39 E.40716
G1 X11.654 Y7.041 E.02445
G1 X19.324 Y14.711 E.40716
G1 X19.324 Y15.363 E.02445
M73 P2 R22
G1 X11.654 Y7.693 E.40716
G1 X11.654 Y8.344 E.02445
G1 X19.324 Y16.014 E.40716
G1 X19.324 Y16.666 E.02445
G1 X11.654 Y8.996 E.40716
G1 X11.654 Y9.647 E.02445
G1 X19.324 Y17.317 E.40716
G1 X19.324 Y17.403 E.00325
G1 X19.27 Y17.914 E.01928
G1 X11.654 Y10.299 E.40428
G1 X11.654 Y10.95 E.02445
G1 X19.175 Y18.471 E.39924
G1 X19.059 Y19.006 E.02056
G1 X11.654 Y11.602 E.39308
G1 X11.654 Y12.253 E.02445
G1 X18.905 Y19.504 E.38492
G1 X18.731 Y19.982 E.01908
G1 X11.654 Y12.905 E.3757
G1 X11.654 Y13.556 E.02445
G1 X18.533 Y20.435 E.36518
G1 X18.323 Y20.876 E.01835
G1 X11.654 Y14.208 E.35402
G1 X11.654 Y14.859 E.02445
G1 X18.08 Y21.285 E.34111
G1 X17.829 Y21.685 E.01774
G1 X11.654 Y15.51 E.32778
G1 X11.654 Y16.162 E.02445
G1 X17.553 Y22.061 E.31316
G1 X17.262 Y22.421 E.01739
G1 X11.654 Y16.813 E.29768
G1 X11.654 Y17.465 E.02445
G1 X16.949 Y22.76 E.2811
G1 X16.628 Y23.09 E.01729
G1 X11.654 Y18.116 E.26404
G1 X11.654 Y18.768 E.02445
G1 X16.278 Y23.392 E.24547
G1 X15.921 Y23.686 E.01737
G1 X11.654 Y19.419 E.2265
G1 X11.654 Y20.071 E.02445
G1 X15.538 Y23.954 E.20617
G1 X15.145 Y24.213 E.01766
G1 X11.654 Y20.722 E.18531
G1 X11.654 Y21.374 E.02445
G1 X14.726 Y24.445 E.16307
G1 X14.286 Y24.657 E.01832
G1 X11.654 Y22.025 E.13974
G1 X11.654 Y22.677 E.02445
G1 X13.833 Y24.855 E.11565
G1 X13.347 Y25.021 E.01926
G1 X11.654 Y23.328 E.08987
G1 X11.654 Y23.979 E.02445
G1 X12.847 Y25.173 E.06334
G1 X12.316 Y25.293 E.02046
G1 X11.448 Y24.425 E.04604
G1 X11.54 Y25.28 F30000
;TYPE:Gap infill
;WIDTH:0.562076
G1 F3000
G1 X10.669 Y25.3 E.03683
G1 X-11.1 Y25.295 E.92096
G1 X-11.54 Y25.274 E.01862
G1 E-.8 F2100
;WIPE_START
G1 F3000
G1 X-11.1 Y25.295
G1 X-9.54 Y25.295
;WIPE_END
G1 X-9.866 Y17.67 Z.6 F30000
G1 X-11.448 Y-19.439 Z.6
G1 Z.2
G1 E.8 F2100
;TYPE:Bottom surface
;WIDTH:0.505082
G1 F4800
G1 X-12.177 Y-20.168 E.03882
G1 X-12.831 Y-20.167 E.02461
G1 X-11.654 Y-18.991 E.06266
G1 X-11.654 Y-18.337 E.02461
G1 X-13.484 Y-20.167 E.09746
G1 X-14.138 Y-20.167 E.02461
G1 X-11.654 Y-17.684 E.13227
G1 X-11.654 Y-17.03 E.02461
G1 X-14.791 Y-20.167 E.16707
G1 X-15.444 Y-20.167 E.02461
G1 X-11.654 Y-16.376 E.20187
G1 X-11.654 Y-15.723 E.02461
G1 X-16.098 Y-20.166 E.23667
G1 X-16.751 Y-20.166 E.02461
G1 X-11.654 Y-15.069 E.27147
G1 X-11.654 Y-14.416 E.02461
G1 X-17.405 Y-20.166 E.30627
G1 X-18.058 Y-20.166 E.02461
G1 X-11.654 Y-13.762 E.34107
G1 X-11.654 Y-13.108 E.02461
G1 X-18.714 Y-20.169 E.37602
G1 X-19.388 Y-20.201 E.02541
G1 X-11.654 Y-12.455 E.41223
G1 X-11.654 Y-11.801 E.02461
G1 X-19.351 Y-19.498 E.40992
G1 X-19.347 Y-18.841 E.02474
G1 X-11.654 Y-11.148 E.40974
G1 X-11.654 Y-10.494 E.02461
G1 X-19.347 Y-18.187 E.40974
G1 X-19.347 Y-17.534 E.02461
G1 X-11.654 Y-9.84 E.40974
G1 X-11.654 Y-9.187 E.02461
G1 X-19.347 Y-16.88 E.40974
G1 X-19.347 Y-16.227 E.02461
G1 X-11.654 Y-8.533 E.40974
G1 X-11.654 Y-7.88 E.02461
G1 X-19.347 Y-15.573 E.40974
G1 X-19.347 Y-14.919 E.02461
G1 X-11.654 Y-7.226 E.40974
G1 X-11.654 Y-6.573 E.02461
G1 X-19.347 Y-14.266 E.40974
G1 X-19.347 Y-13.612 E.02461
G1 X-11.654 Y-5.919 E.40974
G1 X-11.654 Y-5.265 E.02461
M73 P3 R22
G1 X-19.347 Y-12.959 E.40974
G1 X-19.347 Y-12.305 E.02461
G1 X-11.654 Y-4.612 E.40974
G1 X-11.654 Y-3.958 E.02461
G1 X-19.347 Y-11.651 E.40974
G1 X-19.347 Y-10.998 E.02461
G1 X-11.654 Y-3.305 E.40974
G1 X-11.654 Y-2.651 E.02461
G1 X-19.347 Y-10.344 E.40974
G1 X-19.347 Y-9.691 E.02461
G1 X-11.654 Y-1.997 E.40974
G1 X-11.654 Y-1.344 E.02461
G1 X-19.347 Y-9.037 E.40974
G1 X-19.347 Y-8.383 E.02461
G1 X-11.654 Y-.69 E.40974
G1 X-11.654 Y-.037 E.02461
G1 X-19.347 Y-7.73 E.40974
G1 X-19.347 Y-7.076 E.02461
G1 X-11.654 Y.617 E.40974
G1 X-11.654 Y1.271 E.02461
G1 X-19.347 Y-6.423 E.40974
G1 X-19.347 Y-5.769 E.02461
G1 X-11.654 Y1.924 E.40974
G1 X-11.654 Y2.578 E.02461
G1 X-19.347 Y-5.115 E.40974
G1 X-19.347 Y-4.462 E.02461
G1 X-11.654 Y3.231 E.40974
G1 X-11.654 Y3.885 E.02461
G1 X-19.347 Y-3.808 E.40974
G1 X-19.347 Y-3.155 E.02461
G1 X-11.654 Y4.539 E.40974
G1 X-11.654 Y5.192 E.02461
G1 X-19.347 Y-2.501 E.40974
G1 X-19.347 Y-1.848 E.02461
G1 X-11.654 Y5.846 E.40974
G1 X-11.654 Y6.499 E.02461
G1 X-19.347 Y-1.194 E.40974
G1 X-19.347 Y-.54 E.02461
G1 X-11.654 Y7.153 E.40974
G1 X-11.654 Y7.807 E.02461
G1 X-19.347 Y.113 E.40974
G1 X-19.347 Y.767 E.02461
G1 X-11.654 Y8.46 E.40975
G1 X-11.654 Y9.114 E.02461
G1 X-19.347 Y1.42 E.40975
G1 X-19.347 Y2.074 E.02461
G1 X-11.654 Y9.767 E.40975
G1 X-11.654 Y10.421 E.02461
G1 X-19.347 Y2.728 E.40975
G1 X-19.347 Y3.381 E.02461
G1 X-11.654 Y11.075 E.40975
G1 X-11.654 Y11.728 E.02461
G1 X-19.347 Y4.035 E.40975
G1 X-19.347 Y4.688 E.02461
G1 X-11.654 Y12.382 E.40975
G1 X-11.654 Y13.035 E.02461
G1 X-19.347 Y5.342 E.40975
G1 X-19.347 Y5.996 E.02461
G1 X-11.654 Y13.689 E.40975
