; HEADER_BLOCK_START
; generated by OrcaSlicer 2.3.1 on 2025-11-26 at 23:53:47
; total layer number: 50
; filament_density: 1.24,1.24,1.24,1.24
; filament_diameter: 1.75,1.75,1.75,1.75
; max_z_height: 10.00
; HEADER_BLOCK_END

; THUMBNAIL_BLOCK_START

;
; THUMBNAIL_BLOCK_END

; THUMBNAIL_BLOCK_START

;
; THUMBNAIL_BLOCK_END

; external perimeters extrusion width = 0.42mm
; perimeters extrusion width = 0.45mm
; infill extrusion width = 0.45mm
; solid infill extrusion width = 0.42mm
; top infill extrusion width = 0.42mm
; first layer extrusion width = 0.50mm

; EXECUTABLE_BLOCK_START
EXCLUDE_OBJECT_DEFINE NAME=xyz-10mm-calibration-cube.stl_id_0_copy_0 CENTER=0,0 POLYGON=[[-5,-5],[5,-5],[5,5],[-5,5],[-5,-5]]
M73 P0 R5
M106 S0
M106 P2 S0
;TYPE:Custom
SET_PRINT_STATS_INFO TOTAL_LAYER=50 CURRENT_LAYER=0

START_PRINT EXTRUDER_TEMP=220 BED_TEMP=55 Chamber=0 PRINT_MIN=-7,-7 PRINT_MAX=7,7 FORCE_LEVELING=true
G90
G21
M83 ; use relative distances for extrusion
T2
; filament start gcode
;right_extruder_material: PLA
SET_PRESSURE_ADVANCE ADVANCE=0.025; Override pressure advance value
M106 S0
M106 P2 S0
;LAYER_CHANGE
;Z:0.2
;HEIGHT:0.2
;BEFORE_LAYER_CHANGE
;0.2
G1 E-.8 F2100
TIMELAPSE_TAKE_FRAME
;AFTER_LAYER_CHANGE
;0.2
SET_PRINT_STATS_INFO CURRENT_LAYER=1
M117 Layer 1/50 : Flashforge Generic PLA
;_SET_FAN_SPEED_CHANGING_LAYER
SET_VELOCITY_LIMIT ACCEL=500
; printing object xyz-10mm-calibration-cube.stl id:0 copy 0
EXCLUDE_OBJECT_START NAME=xyz-10mm-calibration-cube.stl_id_0_copy_0
G1 X4.1 Y4.1 F30000
G1 Z.6
G1 Z.2
G1 E.8 F2100
;TYPE:Inner wall
;WIDTH:0.5
G1 F2101
G1 X-4.1 Y4.1 E.30542
G1 X-4.1 Y-4.1 E.30542
G1 X4.1 Y-4.1 E.30542
G1 X4.1 Y4.06 E.30393
G1 X4.6 Y4.6 F30000
;TYPE:Outer wall
G1 F2101
G1 X-4.6 Y4.6 E.34267
G1 X-4.6 Y-4.6 E.34267
G1 X4.6 Y-4.6 E.34267
G1 X4.6 Y4.56 E.34118
G1 E-.8 F2100
;WIPE_START
G1 F3000
G1 X2.6 Y4.569
;WIPE_END
G1 X2.968 Y-3.055 Z.6 F30000
G1 X3.012 Y-3.963 Z.6
G1 Z.2
G1 E.8 F2100
;TYPE:Bottom surface
;WIDTH:0.512642
G1 F2101
G1 X3.757 Y-3.218 E.04033
G1 X3.757 Y-2.553 E.02543
M73 P1 R5
G1 X2.553 Y-3.757 E.06516
G1 X1.889 Y-3.757 E.02543
G1 X3.757 Y-1.889 E.10112
G1 X3.757 Y-1.225 E.02543
G1 X1.225 Y-3.757 E.13708
G1 X.561 Y-3.757 E.02543
G1 X3.757 Y-.561 E.17303
G1 X3.757 Y.104 E.02543
G1 X-.104 Y-3.757 E.20899
G1 X-.768 Y-3.757 E.02543
G1 X3.757 Y.768 E.24495
G1 X3.757 Y1.432 E.02543
G1 X-1.432 Y-3.757 E.28091
G1 X-2.097 Y-3.757 E.02543
G1 X3.757 Y2.097 E.31687
G1 X3.757 Y2.761 E.02543
G1 X-2.761 Y-3.757 E.35283
G1 X-3.425 Y-3.757 E.02543
G1 X3.757 Y3.425 E.38878
G1 X3.757 Y3.757 E.01271
G1 X3.425 Y3.757 E.01272
G1 X-3.757 Y-3.425 E.38878
G1 X-3.757 Y-2.761 E.02543
G1 X2.761 Y3.757 E.35282
G1 X2.096 Y3.757 E.02543
G1 X-3.757 Y-2.096 E.31686
G1 X-3.757 Y-1.432 E.02543
M73 P2 R5
G1 X1.432 Y3.757 E.2809
G1 X.768 Y3.757 E.02543
G1 X-3.757 Y-.768 E.24494
G1 X-3.757 Y-.104 E.02543
G1 X.104 Y3.757 E.20899
G1 X-.561 Y3.757 E.02543
G1 X-3.757 Y.561 E.17303
G1 X-3.757 Y1.225 E.02543
G1 X-1.225 Y3.757 E.13707
G1 X-1.889 Y3.757 E.02543
G1 X-3.757 Y1.889 E.10111
G1 X-3.757 Y2.554 E.02543
G1 X-2.554 Y3.757 E.06515
G1 X-3.218 Y3.757 E.02543
G1 X-3.963 Y3.012 E.04033
; stop printing object xyz-10mm-calibration-cube.stl id:0 copy 0
M106 S255
M106 P2 S255
;LAYER_CHANGE
;Z:0.4
;HEIGHT:0.2
;BEFORE_LAYER_CHANGE
;0.4
G1 E-.8 F2100
;WIPE_START
G1 F4800
G1 X-3.218 Y3.757
G1 X-2.554 Y3.757
G1 X-2.753 Y3.558
;WIPE_END
EXCLUDE_OBJECT_END NAME=xyz-10mm-calibration-cube.stl_id_0_copy_0
TIMELAPSE_TAKE_FRAME
;AFTER_LAYER_CHANGE
;0.4
SET_PRINT_STATS_INFO CURRENT_LAYER=2
M117 Layer 2/50 : Flashforge Generic PLA
;_SET_FAN_SPEED_CHANGING_LAYER
SET_VELOCITY_LIMIT ACCEL=10000
M140 S50 ; set bed temperature
; printing object xyz-10mm-calibration-cube.stl id:0 copy 0
EXCLUDE_OBJECT_START NAME=xyz-10mm-calibration-cube.stl_id_0_copy_0
G17
G3 Z.8 I-.136 J1.209 P1  F30000
G1 X4.355 Y4.355 Z.8
G1 Z.4
G1 E.8 F2100
SET_VELOCITY_LIMIT ACCEL=5000
;TYPE:Inner wall
;WIDTH:0.45
G1 F2734
G1 X-4.355 Y4.355 E.28893
G1 X-4.355 Y-4.355 E.28893
G1 X4.355 Y-4.355 E.28893
G1 X4.355 Y4.315 E.2876
SET_VELOCITY_LIMIT ACCEL=10000
G1 X4.79 Y4.79 F30000
SET_VELOCITY_LIMIT ACCEL=5000
;TYPE:Outer wall
;WIDTH:0.42
G1 F2734
G1 X-4.79 Y4.79 E.29437
G1 X-4.79 Y-4.79 E.29437
G1 X4.79 Y-4.79 E.29437
M73 P3 R5
G1 X4.79 Y4.75 E.29314
SET_VELOCITY_LIMIT ACCEL=10000
G1 E-.8 F2100
;WIPE_START
G1 F12000
G1 X2.79 Y4.758
;WIPE_END
G1 X2.988 Y3.888 Z.8 F30000
G1 Z.4
G1 E.8 F2100
SET_VELOCITY_LIMIT ACCEL=7000
;TYPE:Internal solid infill
;WIDTH:0.570047
G1 F2734
G1 X3.888 Y3.888 E.03865
G1 X3.888 Y2.988 E.03865
G1 X3.016 Y3.86 E.05295
SET_VELOCITY_LIMIT ACCEL=10000
G1 X1.959 Y4.329 F30000
SET_VELOCITY_LIMIT ACCEL=7000
;WIDTH:0.422792
G1 F2734
G1 X4.159 Y2.129 E.0963
G1 X4.159 Y1.592 E.01663
G1 X1.592 Y4.159 E.11239
G1 X1.054 Y4.159 E.01663
G1 X4.159 Y1.054 E.1359
G1 X4.159 Y.517 E.01663
G1 X.517 Y4.159 E.15942
G1 X-.02 Y4.159 E.01663
G1 X4.159 Y-.02 E.18294
G1 X4.159 Y-.557 E.01663
G1 X-.557 Y4.159 E.20646
G1 X-1.094 Y4.159 E.01663
G1 X4.159 Y-1.094 E.22998
G1 X4.159 Y-1.632 E.01663
G1 X-1.632 Y4.159 E.25349
G1 X-2.169 Y4.159 E.01663
G1 X4.159 Y-2.169 E.27701
G1 X4.159 Y-2.706 E.01663
G1 X-2.706 Y4.159 E.30053
G1 X-3.243 Y4.159 E.01663
G1 X4.159 Y-3.243 E.32405
G1 X4.159 Y-3.781 E.01663
G1 X-3.781 Y4.159 E.34756
G1 X-4.159 Y4.159 E.01171
G1 X-4.159 Y4 E.00492
G1 X4 Y-4.159 E.35718
G1 X3.463 Y-4.159 E.01663
M73 P4 R5
G1 X-4.159 Y3.463 E.33366
G1 X-4.159 Y2.926 E.01663
G1 X2.926 Y-4.159 E.31014
G1 X2.389 Y-4.159 E.01663
G1 X-4.159 Y2.389 E.28663
G1 X-4.159 Y1.851 E.01663
G1 X1.851 Y-4.159 E.26311
G1 X1.314 Y-4.159 E.01663
G1 X-4.159 Y1.314 E.23959
G1 X-4.159 Y.777 E.01663
G1 X.777 Y-4.159 E.21607
G1 X.24 Y-4.159 E.01663
G1 X-4.159 Y.24 E.19256
G1 X-4.159 Y-.298 E.01663
G1 X-.298 Y-4.159 E.16904
G1 X-.835 Y-4.159 E.01663
G1 X-4.159 Y-.835 E.14552
G1 X-4.159 Y-1.372 E.01663
G1 X-1.372 Y-4.159 E.122
G1 X-1.909 Y-4.159 E.01663
G1 X-4.159 Y-1.909 E.09849
G1 X-4.159 Y-2.446 E.01663
G1 X-2.446 Y-4.159 E.07497
G1 X-2.984 Y-4.159 E.01663
G1 X-4.159 Y-2.984 E.05145
G1 X-4.159 Y-3.521 E.01663
G1 X-3.351 Y-4.329 E.03536
SET_VELOCITY_LIMIT ACCEL=10000
G1 X-4.011 Y-4.069 F30000
SET_VELOCITY_LIMIT ACCEL=7000
;WIDTH:0.38292
G1 F2734
G1 X-4.075 Y-4.032 E.00204
G1 X-4.01 Y-3.997 E.00204
; stop printing object xyz-10mm-calibration-cube.stl id:0 copy 0
;LAYER_CHANGE
;Z:0.6
;HEIGHT:0.2
;BEFORE_LAYER_CHANGE
;0.6
G1 E-.8 F2100
;WIPE_START
G1 F15000
G1 X-4.075 Y-4.032
G1 X-4.011 Y-4.069
;WIPE_END
EXCLUDE_OBJECT_END NAME=xyz-10mm-calibration-cube.stl_id_0_copy_0
TIMELAPSE_TAKE_FRAME
;AFTER_LAYER_CHANGE
;0.6
SET_PRINT_STATS_INFO CURRENT_LAYER=3
M117 Layer 3/50 : Flashforge Generic PLA
;_SET_FAN_SPEED_CHANGING_LAYER
; printing object xyz-10mm-calibration-cube.stl id:0 copy 0
SET_VELOCITY_LIMIT ACCEL=10000
EXCLUDE_OBJECT_START NAME=xyz-10mm-calibration-cube.stl_id_0_copy_0
G17
G3 Z1 I-.863 J.858 P1  F30000
G1 X4.355 Y4.355 Z1
G1 Z.6
G1 E.8 F2100
SET_VELOCITY_LIMIT ACCEL=5000
;TYPE:Inner wall
;WIDTH:0.45
G1 F2738
G1 X-4.355 Y4.355 E.28893
G1 X-4.355 Y-4.355 E.28893
G1 X4.355 Y-4.355 E.28893
G1 X4.355 Y4.315 E.2876
SET_VELOCITY_LIMIT ACCEL=10000
G1 X4.79 Y4.79 F30000
SET_VELOCITY_LIMIT ACCEL=5000
;TYPE:Outer wall
;WIDTH:0.42
G1 F2738
G1 X-4.79 Y4.79 E.29437
G1 X-4.79 Y-4.79 E.29437
M73 P5 R5
G1 X4.79 Y-4.79 E.29437
G1 X4.79 Y4.75 E.29314
SET_VELOCITY_LIMIT ACCEL=10000
G1 E-.8 F2100
;WIPE_START
G1 F12000
G1 X2.79 Y4.758
;WIPE_END
G1 X2.965 Y-2.872 Z1 F30000
G1 X2.988 Y-3.888 Z1
G1 Z.6
G1 E.8 F2100
SET_VELOCITY_LIMIT ACCEL=7000
;TYPE:Internal solid infill
;WIDTH:0.570047
G1 F2738
G1 X3.888 Y-2.988 E.05466
G1 X3.888 Y-3.888 E.03865
G1 X3.028 Y-3.888 E.03693
SET_VELOCITY_LIMIT ACCEL=10000
G1 X1.959 Y-4.329 F30000
SET_VELOCITY_LIMIT ACCEL=7000
;WIDTH:0.422792
G1 F2738
G1 X4.159 Y-2.129 E.0963
G1 X4.159 Y-1.592 E.01663
G1 X1.592 Y-4.159 E.11239
G1 X1.054 Y-4.159 E.01663
G1 X4.159 Y-1.054 E.1359
G1 X4.159 Y-.517 E.01663
G1 X.517 Y-4.159 E.15942
G1 X-.02 Y-4.159 E.01663
G1 X4.159 Y.02 E.18294
G1 X4.159 Y.557 E.01663
G1 X-.557 Y-4.159 E.20646
G1 X-1.094 Y-4.159 E.01663
G1 X4.159 Y1.094 E.22998
G1 X4.159 Y1.632 E.01663
G1 X-1.632 Y-4.159 E.25349
G1 X-2.169 Y-4.159 E.01663
G1 X4.159 Y2.169 E.27701
G1 X4.159 Y2.706 E.01663
G1 X-2.706 Y-4.159 E.30053
G1 X-3.243 Y-4.159 E.01663
G1 X4.159 Y3.243 E.32405
G1 X4.159 Y3.781 E.01663
G1 X-3.781 Y-4.159 E.34756
G1 X-4.159 Y-4.159 E.01171
G1 X-4.159 Y-4 E.00492
G1 X4 Y4.159 E.35718
G1 X3.463 Y4.159 E.01663
M73 P6 R5
G1 X-4.159 Y-3.463 E.33366
G1 X-4.159 Y-2.926 E.01663
G1 X2.926 Y4.159 E.31014
G1 X2.389 Y4.159 E.01663
G1 X-4.159 Y-2.389 E.28663
G1 X-4.159 Y-1.851 E.01663
G1 X1.851 Y4.159 E.26311
G1 X1.314 Y4.159 E.01663
G1 X-4.159 Y-1.314 E.23959
G1 X-4.159 Y-.777 E.01663
G1 X.777 Y4.159 E.21607
G1 X.24 Y4.159 E.01663
G1 X-4.159 Y-.24 E.19256
G1 X-4.159 Y.298 E.01663
G1 X-.298 Y4.159 E.16904
G1 X-.835 Y4.159 E.01663
G1 X-4.159 Y.835 E.14552
G1 X-4.159 Y1.372 E.01663
G1 X-1.372 Y4.159 E.122
G1 X-1.909 Y4.159 E.01663
G1 X-4.159 Y1.909 E.09849
G1 X-4.159 Y2.446 E.01663
G1 X-2.446 Y4.159 E.07497
G1 X-2.984 Y4.159 E.01663
G1 X-4.159 Y2.984 E.05145
G1 X-4.159 Y3.521 E.01663
G1 X-3.351 Y4.329 E.03536
; stop printing object xyz-10mm-calibration-cube.stl id:0 copy 0
;LAYER_CHANGE
;Z:0.8
;HEIGHT:0.2
;BEFORE_LAYER_CHANGE
;0.8
G1 E-.8 F2100
;WIPE_START
G1 F15000
G1 X-4.159 Y3.521
G1 X-4.159 Y2.984
G1 X-3.932 Y3.21
;WIPE_END
EXCLUDE_OBJECT_END NAME=xyz-10mm-calibration-cube.stl_id_0_copy_0
TIMELAPSE_TAKE_FRAME
;AFTER_LAYER_CHANGE
;0.8
SET_PRINT_STATS_INFO CURRENT_LAYER=4
M117 Layer 4/50 : Flashforge Generic PLA
;_SET_FAN_SPEED_CHANGING_LAYER
; printing object xyz-10mm-calibration-cube.stl id:0 copy 0
SET_VELOCITY_LIMIT ACCEL=10000
EXCLUDE_OBJECT_START NAME=xyz-10mm-calibration-cube.stl_id_0_copy_0
G17
G3 Z1.2 I-.167 J1.206 P1  F30000
G1 X4.355 Y4.355 Z1.2
G1 Z.8
G1 E.8 F2100
SET_VELOCITY_LIMIT ACCEL=5000
;TYPE:Inner wall
;WIDTH:0.45
G1 F1200
G1 X-4.355 Y4.355 E.28893
G1 X-4.355 Y-4.355 E.28893
G1 X4.355 Y-4.355 E.28893
M73 P7 R5
G1 X4.355 Y4.315 E.2876
SET_VELOCITY_LIMIT ACCEL=10000
G1 X4.79 Y4.79 F30000
SET_VELOCITY_LIMIT ACCEL=5000
;TYPE:Outer wall
;WIDTH:0.42
G1 F1200
G1 X-4.79 Y4.79 E.29437
G1 X-4.79 Y-4.79 E.29437
M73 P7 R4
G1 X4.79 Y-4.79 E.29437
G1 X4.79 Y4.75 E.29314
SET_VELOCITY_LIMIT ACCEL=10000
G1 E-.8 F2100
;WIPE_START
G1 F12000
G1 X2.79 Y4.758
;WIPE_END
G1 X4.144 Y-1.629 Z1.2 F30000
G1 Z.8
G1 E.8 F2100
;TYPE:Sparse infill
;WIDTH:0.45
G1 F1200
G1 X4.144 Y-.001 E.05401
G1 X.001 Y-4.144 E.19435
M73 P8 R4
G1 X-4.144 Y-4.144 E.1375
G1 X4.144 Y4.144 E.3888
G1 X-.001 Y4.144 E.1375
G1 X-4.144 Y.001 E.19435
G1 X-4.144 Y1.629 E.05401
; stop printing object xyz-10mm-calibration-cube.stl id:0 copy 0
;LAYER_CHANGE
;Z:1
;HEIGHT:0.2
;BEFORE_LAYER_CHANGE
;1
G1 E-.8 F2100
;WIPE_START
G1 F16200
G1 X-4.144 Y.001
G1 X-3.881 Y.264
;WIPE_END
EXCLUDE_OBJECT_END NAME=xyz-10mm-calibration-cube.stl_id_0_copy_0
TIMELAPSE_TAKE_FRAME
;AFTER_LAYER_CHANGE
;1
SET_PRINT_STATS_INFO CURRENT_LAYER=5
M117 Layer 5/50 : Flashforge Generic PLA
;_SET_FAN_SPEED_CHANGING_LAYER
; printing object xyz-10mm-calibration-cube.stl id:0 copy 0
EXCLUDE_OBJECT_START NAME=xyz-10mm-calibration-cube.stl_id_0_copy_0
G17
G3 Z1.4 I-.541 J1.09 P1  F30000
G1 X4.355 Y4.355 Z1.4
G1 Z1
G1 E.8 F2100
SET_VELOCITY_LIMIT ACCEL=5000
;TYPE:Inner wall
G1 F1200
G1 X-4.355 Y4.355 E.28893
G1 X-4.355 Y-4.355 E.28893
G1 X4.355 Y-4.355 E.28893
G1 X4.355 Y4.315 E.2876
M73 P9 R4
SET_VELOCITY_LIMIT ACCEL=10000
G1 X4.79 Y4.79 F30000
SET_VELOCITY_LIMIT ACCEL=5000
;TYPE:Outer wall
;WIDTH:0.42
G1 F1200
G1 X-4.79 Y4.79 E.29437
G1 X-4.79 Y-4.79 E.29437
G1 X4.79 Y-4.79 E.29437
G1 X4.79 Y4.75 E.29314
SET_VELOCITY_LIMIT ACCEL=10000
G1 E-.8 F2100
;WIPE_START
G1 F12000
G1 X2.79 Y4.758
;WIPE_END
G1 X4.144 Y-1.629 Z1.4 F30000
G1 Z1
G1 E.8 F2100
;TYPE:Sparse infill
;WIDTH:0.45
G1 F1200
G1 X4.144 Y-.001 E.05401
G1 X.001 Y-4.144 E.19435
G1 X-4.144 Y-4.144 E.1375
G1 X4.144 Y4.144 E.3888
M73 P10 R4
G1 X-.001 Y4.144 E.1375
G1 X-4.144 Y.001 E.19435
G1 X-4.144 Y1.629 E.05401
; stop printing object xyz-10mm-calibration-cube.stl id:0 copy 0
;LAYER_CHANGE
;Z:1.2
;HEIGHT:0.2
;BEFORE_LAYER_CHANGE
;1.2
G1 E-.8 F2100
;WIPE_START
G1 F16200
G1 X-4.144 Y.001
G1 X-3.881 Y.264
;WIPE_END
EXCLUDE_OBJECT_END NAME=xyz-10mm-calibration-cube.stl_id_0_copy_0
TIMELAPSE_TAKE_FRAME
;AFTER_LAYER_CHANGE
;1.2
SET_PRINT_STATS_INFO CURRENT_LAYER=6
M117 Layer 6/50 : Flashforge Generic PLA
;_SET_FAN_SPEED_CHANGING_LAYER
; printing object xyz-10mm-calibration-cube.stl id:0 copy 0
EXCLUDE_OBJECT_START NAME=xyz-10mm-calibration-cube.stl_id_0_copy_0
G17
G3 Z1.6 I-.541 J1.09 P1  F30000
G1 X4.355 Y4.355 Z1.6
G1 Z1.2
G1 E.8 F2100
SET_VELOCITY_LIMIT ACCEL=5000
;TYPE:Inner wall
G1 F1200
G1 X-4.355 Y4.355 E.28893
G1 X-4.355 Y-4.355 E.28893
G1 X4.355 Y-4.355 E.28893
G1 X4.355 Y4.315 E.2876
SET_VELOCITY_LIMIT ACCEL=10000
G1 X4.79 Y4.79 F30000
SET_VELOCITY_LIMIT ACCEL=5000
;TYPE:Outer wall
;WIDTH:0.42
G1 F1200
G1 X-4.79 Y4.79 E.29437
G1 X-4.79 Y-4.79 E.29437
M73 P11 R4
G1 X4.79 Y-4.79 E.29437
G1 X4.79 Y4.75 E.29314
SET_VELOCITY_LIMIT ACCEL=10000
G1 E-.8 F2100
;WIPE_START
G1 F12000
G1 X2.79 Y4.758
;WIPE_END
G1 X4.144 Y-1.629 Z1.6 F30000
G1 Z1.2
G1 E.8 F2100
;TYPE:Sparse infill
;WIDTH:0.45
G1 F1200
G1 X4.144 Y-.001 E.05401
G1 X.001 Y-4.144 E.19435
G1 X-4.144 Y-4.144 E.1375
G1 X4.144 Y4.144 E.3888
G1 X-.001 Y4.144 E.1375
M73 P12 R4
G1 X-4.144 Y.001 E.19435
G1 X-4.144 Y1.629 E.05401
; stop printing object xyz-10mm-calibration-cube.stl id:0 copy 0
;LAYER_CHANGE
;Z:1.4
;HEIGHT:0.2
;BEFORE_LAYER_CHANGE
;1.4
G1 E-.8 F2100
;WIPE_START
G1 F16200
G1 X-4.144 Y.001
G1 X-3.881 Y.264
;WIPE_END
EXCLUDE_OBJECT_END NAME=xyz-10mm-calibration-cube.stl_id_0_copy_0
TIMELAPSE_TAKE_FRAME
;AFTER_LAYER_CHANGE
;1.4
SET_PRINT_STATS_INFO CURRENT_LAYER=7
M117 Layer 7/50 : Flashforge Generic PLA
;_SET_FAN_SPEED_CHANGING_LAYER
; printing object xyz-10mm-calibration-cube.stl id:0 copy 0
EXCLUDE_OBJECT_START NAME=xyz-10mm-calibration-cube.stl_id_0_copy_0
G17
G3 Z1.8 I-.541 J1.09 P1  F30000
G1 X4.355 Y4.355 Z1.8
G1 Z1.4
G1 E.8 F2100
SET_VELOCITY_LIMIT ACCEL=5000
;TYPE:Inner wall
G1 F1200
G1 X-4.355 Y4.355 E.28893
G1 X-4.355 Y-4.355 E.28893
G1 X4.355 Y-4.355 E.28893
G1 X4.355 Y4.315 E.2876
SET_VELOCITY_LIMIT ACCEL=10000
G1 X4.79 Y4.79 F30000
SET_VELOCITY_LIMIT ACCEL=5000
;TYPE:Outer wall
;WIDTH:0.42
G1 F1200
G1 X-4.79 Y4.79 E.29437
G1 X-4.79 Y-4.79 E.29437
G1 X4.79 Y-4.79 E.29437
M73 P13 R4
G1 X4.79 Y4.75 E.29314
SET_VELOCITY_LIMIT ACCEL=10000
G1 E-.8 F2100
;WIPE_START
G1 F12000
G1 X2.79 Y4.758
;WIPE_END
G1 X4.144 Y-1.629 Z1.8 F30000
G1 Z1.4
G1 E.8 F2100
;TYPE:Sparse infill
;WIDTH:0.45
G1 F1200
G1 X4.144 Y-.001 E.05401
G1 X.001 Y-4.144 E.19435
G1 X-4.144 Y-4.144 E.1375
G1 X4.144 Y4.144 E.3888
G1 X-.001 Y4.144 E.1375
G1 X-4.144 Y.001 E.19435
G1 X-4.144 Y1.629 E.05401
; stop printing object xyz-10mm-calibration-cube.stl id:0 copy 0
;LAYER_CHANGE
;Z:1.6
;HEIGHT:0.2
;BEFORE_LAYER_CHANGE
;1.6
G1 E-.8 F2100
M73 P14 R4
;WIPE_START
G1 F16200
G1 X-4.144 Y.001
G1 X-3.881 Y.264
;WIPE_END
EXCLUDE_OBJECT_END NAME=xyz-10mm-calibration-cube.stl_id_0_copy_0
TIMELAPSE_TAKE_FRAME
;AFTER_LAYER_CHANGE
;1.6
SET_PRINT_STATS_INFO CURRENT_LAYER=8
M117 Layer 8/50 : Flashforge Generic PLA
;_SET_FAN_SPEED_CHANGING_LAYER
; printing object xyz-10mm-calibration-cube.stl id:0 copy 0
EXCLUDE_OBJECT_START NAME=xyz-10mm-calibration-cube.stl_id_0_copy_0
G17
G3 Z2 I-.541 J1.09 P1  F30000
G1 X4.355 Y4.355 Z2
G1 Z1.6
G1 E.8 F2100
SET_VELOCITY_LIMIT ACCEL=5000
;TYPE:Inner wall
G1 F1200
G1 X-4.355 Y4.355 E.28893
G1 X-4.355 Y-4.355 E.28893
G1 X4.355 Y-4.355 E.28893
G1 X4.355 Y4.315 E.2876
SET_VELOCITY_LIMIT ACCEL=10000
G1 X4.79 Y4.79 F30000
SET_VELOCITY_LIMIT ACCEL=5000
;TYPE:Outer wall
;WIDTH:0.42
G1 F1200
G1 X-4.79 Y4.79 E.29437
G1 X-4.79 Y-4.79 E.29437
G1 X4.79 Y-4.79 E.29437
G1 X4.79 Y4.75 E.29314
M73 P15 R4
SET_VELOCITY_LIMIT ACCEL=10000
G1 E-.8 F2100
;WIPE_START
G1 F12000
G1 X2.79 Y4.758
;WIPE_END
G1 X4.144 Y-1.629 Z2 F30000
G1 Z1.6
G1 E.8 F2100
;TYPE:Sparse infill
;WIDTH:0.45
G1 F1200
G1 X4.144 Y-.001 E.05401
G1 X.001 Y-4.144 E.19435
G1 X-4.144 Y-4.144 E.1375
